!!!!SEGMENT: pl-cz--iii-458--003_kuci-mateusz--symfonia-b-allegro.krn
!!!cenid: 17xx:944
!!!COM: Kuci, Mateusz
!!!COM-rismid: pe30017582
!!!CDT:
!!!CNT:
!!!OPR: Symfonia B
!!!OTL: Allegro
!!!OMV: 003
!!!PDT:
!!!AGN: Secular
!!!SMS-siglum: PL-CZ
!!!SMS-shelfmark: III-458
!!!SMS-shelfwork: 001-003 M
!!!SMS-variant:
!!!SMS-altvar:
!!!NIFC-rismid: 300000668
!!!URL-scan: http://repozytorium.nifc.pl/skany/pl-cz-nut--iii-458
!!!ONB-nifc: UWAGA: części Symfonii: Allegro, Adagio, Allegro
!!!key:
**kern	**dynam	**kern	**dynam	**kern	**dynam	**kern	**dynam	**kern	**dynam	**kern	**dynam	**kern	**kern	**dynam	**kern	**dynam
*group3	*	*group3	*	*group3	*	*group3	*	*group2	*	*group2	*	*group1	*group1	*	*group1	*
*part9	*part9	*part8	*part8	*part7	*part7	*part6	*part6	*part5	*part5	*part4	*part4	*part3	*part2	*part2	*part1	*part1
*staff9	*	*staff8	*	*staff7	*	*staff6	*	*staff5	*	*staff4	*	*staff3	*staff2	*	*staff1	*
*I"Baſso.	*	*I"Viola	*	*I"Violino Secondo.	*	*I"Violino. Primo.	*	*I"Cornu IIdo in B	*	*I"Cornu Primo. Toni B.	*	*I"Faggotto. Obliga:	*I"Oboe Secondo.	*	*I"Oboe Primo.	*
*I'cb	*	*I'vla	*	*I'vl 2	*	*I'vl 1	*	*I'cor 2	*	*I'cor 1	*	*I'fag	*I'ob 2	*	*I'ob 1	*
*Icbass	*	*Iviola	*	*Ivioln	*	*Ivioln	*	*Icor	*	*Icor	*	*fagot	*Ioboe	*	*Ioboe	*
*ICstr	*	*ICstr	*	*ICstr	*	*ICstr	*	*ICbras	*	*ICbras	*	*ICww	*ICww	*	*ICww	*
*>[A,A,B,B]	*	*>[A,A,B,B]	*	*>[A,A,B,B]	*	*>[A,A,B,B]	*	*>[A,A,B,B]	*	*>[A,A,B,B]	*	*>[A,A,B,B]	*>[A,A,B,B]	*	*>[A,A,B,B]	*
*clefF4	*	*clefC3	*	*clefG2	*	*clefG2	*	*clefG2	*	*clefG2	*	*clefF4	*clefG2	*	*clefG2	*
*	*	*	*	*	*	*	*	*ITrd1c2	*	*ITrd1c2	*	*	*	*	*	*
*k[b-e-]	*	*k[b-e-]	*	*k[b-e-]	*	*k[b-e-]	*	*k[b-e-]	*	*k[b-e-]	*	*k[b-e-]	*k[b-e-]	*	*k[b-e-]	*
*B-:	*	*B-:	*	*B-:	*	*B-:	*	*B-:	*	*B-:	*	*B-:	*B-:	*	*B-:	*
*M2/4	*	*M2/4	*	*M2/4	*	*M2/4	*	*M2/4	*	*M2/4	*	*M2/4	*M2/4	*	*M2/4	*
=1	=1	=1	=1	=1	=1	=1	=1	=1	=1	=1	=1	=1	=1	=1	=1	=1
*>A	*	*>A	*	*>A	*	*>A	*	*>A	*	*>A	*	*>A	*>A	*	*>A	*
!	!	!	!	!	!	!	!	!LO:TX:a:t=6	!	!LO:TX:a:t=6	!	!	!LO:TX:a:t=6	!	!LO:TX:a:t=6	!
!LO:TX:a:t=Allegro	!LO:DY:t=pia&colon;	!LO:TX:a:t=Allegro	!LO:DY:t=pia&colon;	!LO:TX:a:t=Allegro	!LO:DY:t=p.	!LO:TX:a:t=Allegro	!LO:DY:t=pia&colon;	!LO:TX:a:t=Allegro in B.	!	!LO:TX:a:i:t=Allegro in B.	!	!LO:TX:t=P:problem=partia na stronie tytułowej, brak głosu	!LO:TX:a:i:t=Allegro	!	!LO:TX:a:t=Allegro	!
8B-\L	p	8d\L	p	8f'/L	p	4b-\	p	0r	.	0r	.	2ryy	0r	.	0r	.
8B-\	.	8d\	.	8f'/	.	.	.	.	.	.	.	.	.	.	.	.
8B-\	.	8d\	.	8f'/	.	8.dd\L	.	.	.	.	.	.	.	.	.	.
8B-\J	.	8d\J	.	8f'/J	.	.	.	.	.	.	.	.	.	.	.	.
.	.	.	.	.	.	16ee-\Jk	.	.	.	.	.	.	.	.	.	.
=2	=2	=2	=2	=2	=2	=2	=2	=2	=2	=2	=2	=2	=2	=2	=2	=2
*tremolo	*	*2\right	*	*	*	*	*	*	*	*	*	*	*	*	*	*
*2\right	*	*tremolo	*	*	*	*	*	*	*	*	*	*	*	*	*	*
8B-\L	.	8d\L	.	8f|/L	.	4ff\	.	.	.	.	.	2ryy	.	.	.	.
8B-\	.	8d\	.	8f|/	.	.	.	.	.	.	.	.	.	.	.	.
8B-\	.	8d\	.	8f|/	.	4ff\	.	.	.	.	.	.	.	.	.	.
8B-\J	.	8d\J	.	8f|/J	.	.	.	.	.	.	.	.	.	.	.	.
=3	=3	=3	=3	=3	=3	=3	=3	=3	=3	=3	=3	=3	=3	=3	=3	=3
8A\L	.	8c\L	.	8f/L	.	4.ff\	.	.	.	.	.	2ryy	.	.	.	.
8A\	.	8c\	.	8f/	.	.	.	.	.	.	.	.	.	.	.	.
8A\	.	8c\	.	8f/	.	.	.	.	.	.	.	.	.	.	.	.
8A\J	.	8c\J	.	8f/J	.	8ee-\	.	.	.	.	.	.	.	.	.	.
=4	=4	=4	=4	=4	=4	=4	=4	=4	=4	=4	=4	=4	=4	=4	=4	=4
.	.	.	.	.	.	8qqee-/	.	.	.	.	.	.	.	.	.	.
8B-\L	.	8d\L	.	8f/L	.	4dd\	.	.	.	.	.	2ryy	.	.	.	.
8B-\	.	8d\	.	8f/	.	.	.	.	.	.	.	.	.	.	.	.
8B-\	.	8d\	.	8f/	.	8cc\L	.	.	.	.	.	.	.	.	.	.
8B-\J	.	8d\J	.	8f/J	.	8b-\J	.	.	.	.	.	.	.	.	.	.
=5	=5	=5	=5	=5	=5	=5	=5	=5	=5	=5	=5	=5	=5	=5	=5	=5
*Xtremolo	*	*Xtremolo	*	*tremolo	*	*	*	*	*	*	*	*	*	*	*	*
!	!	!	!	!LO:TX:b:t=....	!	!	!	!	!	!	!	!	!	!	!	!
8E-\L	.	(4c\	.	8f/L	.	(8a/L	.	1r	.	1r	.	2ryy	1r	.	1r	.
8E-\	.	.	.	8f/	.	8cc/)	.	.	.	.	.	.	.	.	.	.
8D\	.	4d\)	.	8f/	.	8b-'/	.	.	.	.	.	.	.	.	.	.
8D\J	.	.	.	8f/J	.	8b-'/J	.	.	.	.	.	.	.	.	.	.
=6	=6	=6	=6	=6	=6	=6	=6	=6	=6	=6	=6	=6	=6	=6	=6	=6
8E-\L	.	(4c\	.	8f/L	.	(8a/L	.	.	.	.	.	2ryy	.	.	.	.
8E-\	.	.	.	8f/	.	8cc/)	.	.	.	.	.	.	.	.	.	.
8D\	.	4d\)	.	8f/	.	8b-'/	.	.	.	.	.	.	.	.	.	.
8D\J	.	.	.	8f/J	.	8b-'/J	.	.	.	.	.	.	.	.	.	.
*	*	*	*	*Xtremolo	*	*	*	*	*	*	*	*	*	*	*	*
=7	=7	=7	=7	=7	=7	=7	=7	=7	=7	=7	=7	=7	=7	=7	=7	=7
!LO:TX:t=P:problem=mixed beam	!	!	!	!	!	!	!	!	!	!	!	!	!	!	!	!
!	!LO:DY:t=for &colon;	!	!	!	!LO:DY:rj	!	!	!	!	!	!	!	!	!	!	!LO:DY:t=for&colon;
8A|\L	f	4f\	f	4cc/ 4f|>/	f	4ee-|\	f	4f/	.	4ff\	.	2ryy	4cc|\	.	4ee-|\	f
8F|\	.	.	.	.	.	.	.	.	.	.	.	.	.	.	.	.
8B-|\	.	4f\	.	4b-/ 4f|>/	.	4dd|\	.	4f/	.	4ff\	.	.	4b-|\	f	4dd|\	.
8BB-|/J	.	.	.	.	.	.	.	.	.	.	.	.	.	.	.	.
=8	=8	=8	=8	=8	=8	=8	=8	=8	=8	=8	=8	=8	=8	=8	=8	=8
*	*	*	*	*^	*	*	*	*	*	*	*	*	*	*	*	*
8F|\L	.	4f\	.	4a|/	4f\	.	4cc|\	.	4f/	.	4ff\	.	2ryy	4f|/	.	4cc|\	.
8E-|\	.	.	.	.	.	.	.	.	.	.	.	.	.	.	.	.	.
8D|\	.	4r	.	4r	4ryy	.	8r	.	4r	.	4r	.	.	4r	.	4r	.
8C|\J	.	.	.	.	.	.	8f/	pp	.	.	.	.	.	.	.	.	.
*	*	*	*	*v	*v	*	*	*	*	*	*	*	*	*	*	*	*
=9	=9	=9	=9	=9	=9	=9	=9	=9	=9	=9	=9	=9	=9	=9	=9	=9
*	*	*tremolo	*	*	*	*	*	*	*	*	*	*	*	*	*	*
!LO:TX:t=P:problem=mixed beam	!LO:DY:t=pia	!	!	!	!	!	!	!LO:TX:a:t=6	!	!LO:TX:a:t=6	!	!	!LO:TX:a:t=6	!	!LO:TX:a:t=6	!
8BB-/L	p	8d\L	p	(8d/L	p	4b-\	.	0r	.	0r	.	2ryy	0r	.	0r	.
8B-\	.	8d\	.	8f/)	.	.	.	.	.	.	.	.	.	.	.	.
8B-\	.	8d\	.	8f'/	.	8.dd\L	.	.	.	.	.	.	.	.	.	.
8B-\J	.	8d\J	.	8f'/J	.	.	.	.	.	.	.	.	.	.	.	.
.	.	.	.	.	.	16ee-\Jk	.	.	.	.	.	.	.	.	.	.
!	!	!	!	!LO:LB:g=original	!	!LO:LB:g=original	!	!	!	!	!	!	!	!	!	!
=10	=10	=10	=10	=10	=10	=10	=10	=10	=10	=10	=10	=10	=10	=10	=10	=10
*tremolo	*	*	*	*	*	*	*	*	*	*	*	*	*	*	*	*
8B-\L	.	8d\L	.	8f/L	.	4ff\	.	.	.	.	.	2ryy	.	.	.	.
8B-\	.	8d\	.	8f/	.	.	.	.	.	.	.	.	.	.	.	.
8B-\	.	8d\	.	8f/	.	4ff\	.	.	.	.	.	.	.	.	.	.
8B-\J	.	8d\J	.	8f/J	.	.	.	.	.	.	.	.	.	.	.	.
=11	=11	=11	=11	=11	=11	=11	=11	=11	=11	=11	=11	=11	=11	=11	=11	=11
*	*	*	*	*tremolo	*	*	*	*	*	*	*	*	*	*	*	*
8A\L	.	8c\L	.	8f/L	.	4.ff\	.	.	.	.	.	2ryy	.	.	.	.
8A\	.	8c\	.	8f/	.	.	.	.	.	.	.	.	.	.	.	.
8A\	.	8c\	.	8f/	.	.	.	.	.	.	.	.	.	.	.	.
8A\J	.	8c\J	.	8f/J	.	8ee-\	.	.	.	.	.	.	.	.	.	.
=12	=12	=12	=12	=12	=12	=12	=12	=12	=12	=12	=12	=12	=12	=12	=12	=12
.	.	.	.	.	.	8qqee-/	.	.	.	.	.	.	.	.	.	.
8B-\L	.	8d\L	.	8f/L	.	4dd\	.	.	.	.	.	2ryy	.	.	.	.
8B-\	.	8d\	.	8f/	.	.	.	.	.	.	.	.	.	.	.	.
8B-\	.	8d\	.	8f/	.	8cc\L	.	.	.	.	.	.	.	.	.	.
8B-\J	.	8d\J	.	8f/J	.	8b-\J	.	.	.	.	.	.	.	.	.	.
*Xtremolo	*	*	*	*	*	*	*	*	*	*	*	*	*	*	*	*
!LO:LB:g=original	!	!LO:LB:g=original	!	!	!	!	!	!	!	!	!	!	!	!	!	!
=13	=13	=13	=13	=13	=13	=13	=13	=13	=13	=13	=13	=13	=13	=13	=13	=13
8E-\L	.	(4c\	.	8f/L	.	(8a/L	.	1r	.	1r	.	2ryy	1r	.	1r	.
8E-\	.	.	.	8f/	.	8cc/)	.	.	.	.	.	.	.	.	.	.
8D\	.	4d\	.	8f/	.	8b-'/	.	.	.	.	.	.	.	.	.	.
8D\J	.	.	.	8f/J	.	8b-'/J	.	.	.	.	.	.	.	.	.	.
=14	=14	=14	=14	=14	=14	=14	=14	=14	=14	=14	=14	=14	=14	=14	=14	=14
8E-\L	.	4c\	.	8f/L	.	(8a/L	.	.	.	.	.	2ryy	.	.	.	.
8E-\	.	.	.	8f/	.	8cc/)	.	.	.	.	.	.	.	.	.	.
8D\	.	4d\)	.	8f/	.	8b-'/	.	.	.	.	.	.	.	.	.	.
8D\J	.	.	.	8f/J	.	8b-'/J	.	.	.	.	.	.	.	.	.	.
*	*	*	*	*Xtremolo	*	*	*	*	*	*	*	*	*	*	*	*
=15	=15	=15	=15	=15	=15	=15	=15	=15	=15	=15	=15	=15	=15	=15	=15	=15
!	!LO:DY:t=fortiſ&colon;	!	!	!	!LO:DY:rj	!	!LO:DY:rj	!	!	!	!LO:DY:t=fo	!	!	!	!	!
4E-|\	ff	4c\	f	4cc/ 4f/	f	4ee-\	f	4f/	.	4ff\	f	2ryy	4cc|<\	.	4ee-|\	.
4F|\	.	4c\	.	4a/ 4f/ 4c/	.	4cc\	.	4f/	.	4ff\	.	.	4f|/	.	4cc|\	.
=16	=16	=16	=16	=16	=16	=16	=16	=16	=16	=16	=16	=16	=16	=16	=16	=16
!LO:TX:t=P:problem=mixed beam	!	!LO:TX:t=P:problem=mixed beam	!LO:DY:t=f&colon;	!	!	!	!	!	!	!	!	!	!	!	!	!
16BB-/LL	.	16B-/LL	f	4b-/ 4f/ 4B-/	.	4b-\	.	4B-/	.	4b-\	.	2ryy	4d/	.	4b-|\	.
16B-\	.	16b-\	.	.	.	.	.	.	.	.	.	.	.	.	.	.
16A\	.	16a\	.	.	.	.	.	.	.	.	.	.	.	.	.	.
16G\JJ	.	16g\JJ	.	.	.	.	.	.	.	.	.	.	.	.	.	.
!	!	!	!	!	!	!	!LO:DY:t=fortiſs.	!	!	!	!	!	!	!	!	!
16F\LL	.	16f\LL	.	4r	.	8r	ff	4r	.	4r	.	.	4r	.	4r	.
16E-\	.	16e-\	.	.	.	.	.	.	.	.	.	.	.	.	.	.
16D\	.	16d\	.	.	.	8f/	.	.	.	.	.	.	.	.	.	.
16C\JJ	.	16c\JJ	.	.	.	.	.	.	.	.	.	.	.	.	.	.
=17	=17	=17	=17	=17	=17	=17	=17	=17	=17	=17	=17	=17	=17	=17	=17	=17
*	*	*tremolo	*	*	*	*2\right	*	*	*	*2\right	*	*	*	*	*2\right	*
!	!	!	!	!	!LO:DY:t=fortiſ&colon;	!	!	!	!	!	!	!	!	!	!	!
8BB-/L	f	16B-/LL	.	16d/LL	ff	2dd\	.	2B-/	.	2b-\	.	2ryy	[2d/	.	2b-\	.
.	.	16B-/	.	16f/	.	.	.	.	.	.	.	.	.	.	.	.
8D/	.	16B-/	.	16d/	.	.	.	.	.	.	.	.	.	.	.	.
.	.	16B-/	.	16f/JJ	.	.	.	.	.	.	.	.	.	.	.	.
8F/	.	16B-/	.	16d/LL	.	.	.	.	.	.	.	.	.	.	.	.
.	.	16B-/	.	16f/	.	.	.	.	.	.	.	.	.	.	.	.
8D/J	.	16B-/	.	16d/	.	.	.	.	.	.	.	.	.	.	.	.
.	.	16B-/JJ	.	16f/JJ	.	.	.	.	.	.	.	.	.	.	.	.
=18	=18	=18	=18	=18	=18	=18	=18	=18	=18	=18	=18	=18	=18	=18	=18	=18
*	*	*	*	*tremolo	*	*	*	*	*	*	*	*	*	*	*	*
4BB-/	.	16B-/LL	.	16f/ 16d/LL	.	16bb-\LL	.	4B-/	.	4b-\	.	2ryy	4d/]	.	4b-\	.
.	.	16B-/	.	16f/ 16d/	.	16aa\	.	.	.	.	.	.	.	.	.	.
.	.	16B-/	.	16f/ 16d/	.	16gg\	.	.	.	.	.	.	.	.	.	.
.	.	16B-/	.	16f/ 16d/	.	16ff\JJ	.	.	.	.	.	.	.	.	.	.
4r	.	16B-/	.	16f/ 16d/	.	16ee-\LL	.	4r	.	4r	.	.	4r	.	4r	.
.	.	16B-/	.	16f/ 16d/	.	16dd\	.	.	.	.	.	.	.	.	.	.
.	.	16B-/	.	16f/ 16d/	.	16cc\	.	.	.	.	.	.	.	.	.	.
.	.	16B-/JJ	.	16f/ 16d/JJ	.	16b-\JJ	.	.	.	.	.	.	.	.	.	.
!	!	!	!	!	!	!LO:LB:g=original	!	!	!	!	!	!	!	!	!	!
=19	=19	=19	=19	=19	=19	=19	=19	=19	=19	=19	=19	=19	=19	=19	=19	=19
8FF/L	.	16A/LL	.	16f/ 16c/LL	.	4ff\	.	4f/	.	4cc\	.	2ryy	4a/	.	4ff\	.
.	.	16A/	.	16f/ 16c/	.	.	.	.	.	.	.	.	.	.	.	.
16GG/L	.	16A/	.	16f/ 16c/	.	.	.	.	.	.	.	.	.	.	.	.
16AA/JJ	.	16A/	.	16f/ 16c/	.	.	.	.	.	.	.	.	.	.	.	.
16BB-/LL	.	16A/	.	16f/ 16c/	.	4f/	.	4f/	.	4cc\	.	.	4cc\	.	4cc\	.
16C/	.	16A/	.	16f/ 16c/	.	.	.	.	.	.	.	.	.	.	.	.
16D/	.	16A/	.	16f/ 16c/	.	.	.	.	.	.	.	.	.	.	.	.
16En/JJ	.	16A/JJ	.	16f/ 16c/JJ	.	.	.	.	.	.	.	.	.	.	.	.
!	!	!	!	!LO:LB:g=original	!	!	!	!	!	!	!	!	!	!	!	!
=20	=20	=20	=20	=20	=20	=20	=20	=20	=20	=20	=20	=20	=20	=20	=20	=20
16F\LL	.	16A/LL	.	16f/ 16c/LL	.	4r	.	4f/	.	4cc\	.	2ryy	4f/	.	4a/	.
!LO:TX:t=P:problem=bemol nad nutą	!	!	!	!	!	!	!	!	!	!	!	!	!	!	!	!
16En\	.	16A/	.	16f/ 16c/	.	.	.	.	.	.	.	.	.	.	.	.
16D\	.	16A/	.	16f/ 16c/	.	.	.	.	.	.	.	.	.	.	.	.
16C\JJ	.	16A/	.	16f/ 16c/	.	.	.	.	.	.	.	.	.	.	.	.
16BB-/LL	.	16A/	.	16f/ 16c/	.	4cc\	.	4r	.	4r	.	.	4r	.	4r	.
16AA/	.	16A/	.	16f/ 16c/	.	.	.	.	.	.	.	.	.	.	.	.
16GG/	.	16A/	.	16f/ 16c/	.	.	.	.	.	.	.	.	.	.	.	.
16FF/JJ	.	16A/JJ	.	16f/ 16c/JJ	.	.	.	.	.	.	.	.	.	.	.	.
!LO:LB:g=original	!	!	!	!	!	!	!	!LO:LB:g=original	!	!LO:LB:g=original	!	!	!LO:LB:g=original	!	!LO:LB:g=original	!
=21	=21	=21	=21	=21	=21	=21	=21	=21	=21	=21	=21	=21	=21	=21	=21	=21
!	!	!	!	!	!	!	!	!LO:TX:a:t=14	!	!LO:TX:a:t=14	!	!	!	!	!	!LO:DY:rj:t=p
8C/L	.	16G/LL	.	16g/ 16c/LL	.	2b-\	.	0r	.	0r	.	2ryy	2g/	p	2b-\	p
.	.	16G/	.	16g/ 16c/	.	.	.	.	.	.	.	.	.	.	.	.
!LO:SIC:v:s=8En/	!	!	!	!	!	!	!	!	!	!	!	!	!	!	!	!
8E-/	.	16G/	.	16g/ 16c/	.	.	.	.	.	.	.	.	.	.	.	.
.	.	16G/	.	16g/ 16c/	.	.	.	.	.	.	.	.	.	.	.	.
!LO:TX:t=P:problem=dodatkowa pauza 4r	!	!	!	!	!	!	!	!	!	!	!	!	!	!	!	!
8G/	.	16G/	.	16g/ 16c/	.	.	.	.	.	.	.	.	.	.	.	.
.	.	16G/	.	16g/ 16c/	.	.	.	.	.	.	.	.	.	.	.	.
!LO:SIC:v:s=8En/	!	!	!	!	!	!	!	!	!	!	!	!	!	!	!	!
8E-/J	.	16G/	.	16g/ 16c/	.	.	.	.	.	.	.	.	.	.	.	.
.	.	16G/JJ	.	16g/ 16c/JJ	.	.	.	.	.	.	.	.	.	.	.	.
=22	=22	=22	=22	=22	=22	=22	=22	=22	=22	=22	=22	=22	=22	=22	=22	=22
4C/	.	16G/LL	.	16g/ 16c/LL	.	16gg\LL	.	.	.	.	.	2ryy	4b-/	.	4gg\	.
.	.	16G/	.	16g/ 16c/	.	16ff\	.	.	.	.	.	.	.	.	.	.
!	!	!	!	!	!	!LO:SIC:v:s=16een\	!	!	!	!	!	!	!	!	!	!
.	.	16G/	.	16g/ 16c/	.	16ee-\	.	.	.	.	.	.	.	.	.	.
.	.	16G/	.	16g/ 16c/	.	16dd\JJ	.	.	.	.	.	.	.	.	.	.
4r	.	16G/	.	16g/ 16c/	.	16cc\LL	.	.	.	.	.	.	4r	.	4r	.
.	.	16G/	.	16g/ 16c/	.	16b-\	.	.	.	.	.	.	.	.	.	.
.	.	16G/	.	16g/ 16c/	.	16a\	.	.	.	.	.	.	.	.	.	.
.	.	16G/JJ	.	16g/ 16c/JJ	.	16g\JJ	.	.	.	.	.	.	.	.	.	.
*	*	*Xtremolo	*	*Xtremolo	*	*	*	*	*	*	*	*	*	*	*	*
=23	=23	=23	=23	=23	=23	=23	=23	=23	=23	=23	=23	=23	=23	=23	=23	=23
*	*	*	*	*^	*	*	*	*	*	*	*	*	*	*	*	*
*	*	*	*	*	*	*	*	*	*	*	*	*	*	*2\right	*	*	*
4F\	.	4F/	.	4a/	4f\	.	16a\LL	.	.	.	.	.	2ryy	2cc\	.	[2ff\	.
.	.	.	.	.	.	.	16ff\	.	.	.	.	.	.	.	.	.	.
.	.	.	.	.	.	.	16een\	.	.	.	.	.	.	.	.	.	.
.	.	.	.	.	.	.	16ff\JJ	.	.	.	.	.	.	.	.	.	.
4r	.	4r	.	4r	4ryy	.	16gg\LL	.	.	.	.	.	.	.	.	.	.
.	.	.	.	.	.	.	16ff\	.	.	.	.	.	.	.	.	.	.
.	.	.	.	.	.	.	16ee\	.	.	.	.	.	.	.	.	.	.
.	.	.	.	.	.	.	16ff\JJ	.	.	.	.	.	.	.	.	.	.
*	*	*	*	*v	*v	*	*	*	*	*	*	*	*	*	*	*	*
!	!	!LO:LB:g=original	!	!	!	!	!	!	!	!	!	!	!	!	!	!
=24	=24	=24	=24	=24	=24	=24	=24	=24	=24	=24	=24	=24	=24	=24	=24	=24
4B-\	.	4B-/	.	4f|/	.	16dd\LL	.	.	.	.	.	2ryy	2dd\	.	2ff\_	.
.	.	.	.	.	.	16ff\	.	.	.	.	.	.	.	.	.	.
.	.	.	.	.	.	16een\	.	.	.	.	.	.	.	.	.	.
.	.	.	.	.	.	16ff\JJ	.	.	.	.	.	.	.	.	.	.
4r	.	4r	.	4r	.	16gg\LL	.	.	.	.	.	.	.	.	.	.
.	.	.	.	.	.	16ff\	.	.	.	.	.	.	.	.	.	.
.	.	.	.	.	.	16ee\	.	.	.	.	.	.	.	.	.	.
.	.	.	.	.	.	16ff\JJ	.	.	.	.	.	.	.	.	.	.
=25	=25	=25	=25	=25	=25	=25	=25	=25	=25	=25	=25	=25	=25	=25	=25	=25
4A\	.	4A/	.	4f/	.	16cc\LL	.	0r	.	0r	.	2ryy	2cc\	.	2ff\]	.
.	.	.	.	.	.	16ff\	.	.	.	.	.	.	.	.	.	.
!	!	!	!	!	!	!LO:SIC:v:s=16een\	!	!	!	!	!	!	!	!	!	!
.	.	.	.	.	.	16ee-\	.	.	.	.	.	.	.	.	.	.
.	.	.	.	.	.	16ff\JJ	.	.	.	.	.	.	.	.	.	.
4r	.	4r	.	4r	.	16gg\LL	.	.	.	.	.	.	.	.	.	.
.	.	.	.	.	.	16ff\	.	.	.	.	.	.	.	.	.	.
!	!	!	!	!	!	!LO:SIC:v:s=16een\	!	!	!	!	!	!	!	!	!	!
.	.	.	.	.	.	16ee-\	.	.	.	.	.	.	.	.	.	.
.	.	.	.	.	.	16ff\JJ	.	.	.	.	.	.	.	.	.	.
!	!	!	!	!	!	!LO:LB:g=original	!	!	!	!	!	!	!	!	!	!
=26	=26	=26	=26	=26	=26	=26	=26	=26	=26	=26	=26	=26	=26	=26	=26	=26
4G\	.	4c\	.	2g/ 2c/	.	16bb-\LL	.	.	.	.	.	2ryy	2een\	.	2bb-X\	.
.	.	.	.	.	.	16aa\	.	.	.	.	.	.	.	.	.	.
.	.	.	.	.	.	16gg\	.	.	.	.	.	.	.	.	.	.
.	.	.	.	.	.	16ff\JJ	.	.	.	.	.	.	.	.	.	.
4C/	.	4c\	.	.	.	16een\LL	.	.	.	.	.	.	.	.	.	.
.	.	.	.	.	.	16dd\	.	.	.	.	.	.	.	.	.	.
.	.	.	.	.	.	16cc\	.	.	.	.	.	.	.	.	.	.
.	.	.	.	.	.	16b-\JJ	.	.	.	.	.	.	.	.	.	.
=27	=27	=27	=27	=27	=27	=27	=27	=27	=27	=27	=27	=27	=27	=27	=27	=27
4F\	.	4c\	.	4f/	.	16a\LL	.	.	.	.	.	2ryy	2ff\	.	2aa\	.
.	.	.	.	.	.	16ff\	.	.	.	.	.	.	.	.	.	.
!	!	!	!	!	!	!LO:TX:t=P:♮above:problem	!	!	!	!	!	!	!	!	!	!
.	.	.	.	.	.	16een\	.	.	.	.	.	.	.	.	.	.
.	.	.	.	.	.	16ff\JJ	.	.	.	.	.	.	.	.	.	.
4r	.	4r	.	4r	.	16gg\LL	.	.	.	.	.	.	.	.	.	.
.	.	.	.	.	.	16ff\	.	.	.	.	.	.	.	.	.	.
.	.	.	.	.	.	16ee\	.	.	.	.	.	.	.	.	.	.
.	.	.	.	.	.	16ff\JJ	.	.	.	.	.	.	.	.	.	.
=28	=28	=28	=28	=28	=28	=28	=28	=28	=28	=28	=28	=28	=28	=28	=28	=28
4B-\	.	4d\	.	4f/	.	16dd\LL	.	.	.	.	.	2ryy	2b-\	.	2dd\	.
.	.	.	.	.	.	16ff\	.	.	.	.	.	.	.	.	.	.
!	!	!	!	!	!	!LO:SIC:v:s=16een\	!	!	!	!	!	!	!	!	!	!
.	.	.	.	.	.	16ee-\	.	.	.	.	.	.	.	.	.	.
.	.	.	.	.	.	16ff\JJ	.	.	.	.	.	.	.	.	.	.
4r	.	4r	.	4r	.	16gg\LL	.	.	.	.	.	.	.	.	.	.
.	.	.	.	.	.	16ff\	.	.	.	.	.	.	.	.	.	.
!	!	!	!	!	!	!LO:SIC:v:s=16een\	!	!	!	!	!	!	!	!	!	!
.	.	.	.	.	.	16ee-\	.	.	.	.	.	.	.	.	.	.
.	.	.	.	.	.	16ff\JJ	.	.	.	.	.	.	.	.	.	.
!	!	!	!	!LO:LB:g=original	!	!	!	!	!	!	!	!	!	!	!	!
=29	=29	=29	=29	=29	=29	=29	=29	=29	=29	=29	=29	=29	=29	=29	=29	=29
4A\	.	4c\	.	4f/	.	16cc\LL	.	0r	.	0r	.	2ryy	2a/	.	2cc\	.
.	.	.	.	.	.	16ff\	.	.	.	.	.	.	.	.	.	.
!	!	!	!	!	!	!LO:SIC:v:s=16een\	!	!	!	!	!	!	!	!	!	!
.	.	.	.	.	.	16ee-\	.	.	.	.	.	.	.	.	.	.
.	.	.	.	.	.	16ff\JJ	.	.	.	.	.	.	.	.	.	.
4r	.	4r	.	4r	.	16gg\LL	.	.	.	.	.	.	.	.	.	.
.	.	.	.	.	.	16ff\	.	.	.	.	.	.	.	.	.	.
!	!	!	!	!	!	!LO:SIC:v:s=16een\	!	!	!	!	!	!	!	!	!	!
.	.	.	.	.	.	16ee-\	.	.	.	.	.	.	.	.	.	.
.	.	.	.	.	.	16ff\JJ	.	.	.	.	.	.	.	.	.	.
=30	=30	=30	=30	=30	=30	=30	=30	=30	=30	=30	=30	=30	=30	=30	=30	=30
!	!	!	!	!	!	!	!	!	!	!	!	!	!LO:TX:a:t=3	!	!LO:TX:a:t=3	!
(4.B-\	.	(2d\	.	16dd\LL	.	16dd\LL	.	.	.	.	.	2ryy	1r	.	1r	.
.	.	.	.	16cc\	.	16cc\	.	.	.	.	.	.	.	.	.	.
.	.	.	.	16b-\	.	16b-\	.	.	.	.	.	.	.	.	.	.
.	.	.	.	16a\JJ	.	16a\JJ	.	.	.	.	.	.	.	.	.	.
.	.	.	.	16b-/LL	.	16b-/LL	.	.	.	.	.	.	.	.	.	.
.	.	.	.	16a/	.	16a/	.	.	.	.	.	.	.	.	.	.
8Bn\)	.	.	.	16g/	.	16g/	.	.	.	.	.	.	.	.	.	.
.	.	.	.	16f/JJ	.	16f/JJ	.	.	.	.	.	.	.	.	.	.
!LO:LB:g=original	!	!	!	!	!	!LO:LB:g=original	!	!	!	!	!	!	!	!	!	!
=31	=31	=31	=31	=31	=31	=31	=31	=31	=31	=31	=31	=31	=31	=31	=31	=31
4c\	.	4c\)	.	16e-/LL	.	16e-/LL	.	.	.	.	.	2ryy	.	.	.	.
.	.	.	.	16c/	.	16c/	.	.	.	.	.	.	.	.	.	.
.	.	.	.	16d/	.	16d/	.	.	.	.	.	.	.	.	.	.
.	.	.	.	16e-/JJ	.	16e-/JJ	.	.	.	.	.	.	.	.	.	.
4r	.	4r	.	16f/LL	.	16f/LL	.	.	.	.	.	.	.	.	.	.
.	.	.	.	16g/	.	16g/	.	.	.	.	.	.	.	.	.	.
.	.	.	.	16a/	.	16a/	.	.	.	.	.	.	.	.	.	.
.	.	.	.	16b-/JJ	.	16bn/JJ	.	.	.	.	.	.	.	.	.	.
=32	=32	=32	=32	=32	=32	=32	=32	=32	=32	=32	=32	=32	=32	=32	=32	=32
4c\	.	4c\	.	8cc\L	.	8cc\L	.	.	.	.	.	2ryy	2r	.	2r	.
.	.	.	.	16dd\L	.	16dd\L	.	.	.	.	.	.	.	.	.	.
.	.	.	.	16ee-\JJ	.	16ee-\JJ	.	.	.	.	.	.	.	.	.	.
4r	.	4r	.	16ff\LL	.	16ff\LL	.	.	.	.	.	.	.	.	.	.
.	.	.	.	16gg\	.	16gg\	.	.	.	.	.	.	.	.	.	.
.	.	.	.	16aa\	.	16aa\	.	.	.	.	.	.	.	.	.	.
.	.	.	.	16bbn\JJ	.	16bbn\JJ	.	.	.	.	.	.	.	.	.	.
=33	=33	=33	=33	=33	=33	=33	=33	=33	=33	=33	=33	=33	=33	=33	=33	=33
8c\L	.	8c\L	.	4ccc\	.	4ccc|\	.	1r	.	1r	.	2ryy	4r	.	4r	.
16G\L	.	16g\L	.	.	.	.	.	.	.	.	.	.	.	.	.	.
16E-\JJ	.	16e-\JJ	.	.	.	.	.	.	.	.	.	.	.	.	.	.
!	!	!	!	!	!	!	!	!	!	!	!	!	!	!	!LO:SIC:v:s=4eeb\	!
8C/L	.	8c/L	.	4e-/ 4G/	.	4cc/ 4e-/ 4G/	.	.	.	.	.	.	4cc\	.	4een\	.
16GG/L	.	16G/L	.	.	.	.	.	.	.	.	.	.	.	.	.	.
16EE-/JJ	.	16E-/JJ	.	.	.	.	.	.	.	.	.	.	.	.	.	.
!	!	!LO:LB:g=original	!	!LO:LB:g=original	!	!	!	!	!	!	!	!	!	!	!	!
=34	=34	=34	=34	=34	=34	=34	=34	=34	=34	=34	=34	=34	=34	=34	=34	=34
4CC/	.	2C/	.	2e-/ 2G/	.	2cc/ 2e-/ 2G/	.	.	.	.	.	2ryy	2cc\	.	2ee-\	.
4r	.	.	.	.	.	.	.	.	.	.	.	.	.	.	.	.
!	!	!	!	!	!	!	!	!	!	!	!	!	!	!	!LO:LB:g=original	!
=35	=35	=35	=35	=35	=35	=35	=35	=35	=35	=35	=35	=35	=35	=35	=35	=35
!	!LO:DY:t=pia	!	!LO:DY:t=pia&colon;	!LO:TX:a:t=2	!	!	!	!	!LO:DY:rj	!LO:N:vis=1	!LO:DY:t=p	!	!LO:TX:a:t=2	!	!	!
4F\	p	4f\	p	1r	.	8r	pp	[2c/	p	[<2cc\	p	2ryy	1r	.	8r	.
.	.	.	.	.	.	(8cc\L	.	.	.	.	.	.	.	.	(8ccc\L	p
4r	.	4r	.	.	.	8bn\	.	.	.	.	.	.	.	.	8bbn\	.
.	.	.	.	.	.	8cc\J)	.	.	.	.	.	.	.	.	8ccc\J	.
=36	=36	=36	=36	=36	=36	=36	=36	=36	=36	=36	=36	=36	=36	=36	=36	=36
!	!	!	!	!	!	!	!	!	!	!LO:N:vis=1	!	!	!	!	!	!
4FF/	.	4F/	.	.	.	8dd\L	.	2c/_	.	2cc\]	.	2ryy	.	.	8ddd\L)	.
.	.	.	.	.	.	(8cc\	.	.	.	.	.	.	.	.	8ccc\	.
4r	.	4r	.	.	.	8bn\	.	.	.	.	.	.	.	.	8bbn\	.
!	!	!	!	!	!	!	!	!	!	!	!	!	!	!	!	!LO:DY:a
.	.	.	.	.	.	8cc\J)	.	.	.	.	.	.	.	.	8ccc\J	f
!	!	!	!	!	!	!LO:LB:g=original	!	!	!	!	!	!	!	!	!	!
=37	=37	=37	=37	=37	=37	=37	=37	=37	=37	=37	=37	=37	=37	=37	=37	=37
!	!	!	!	!	!	!	!	!	!	!LO:N:vis=1	!	!	!	!LO:DY:t=p	!	!
4C/	.	4c/	.	8r	p	[<2cc\	.	2c/_	.	[<2cc\	.	2ryy	8r	p	[2ccc\	.
.	.	.	.	(8b-/L	.	.	.	.	.	.	.	.	(8bb-X\L	.	.	.
4r	.	4r	.	8a/	.	.	.	.	.	.	.	.	8aa\	.	.	.
.	.	.	.	8b-/J)	.	.	.	.	.	.	.	.	8bb-\J)	.	.	.
!	!	!	!	!	!	!	!	!	!	!	!	!	!LO:LB:g=original	!	!	!
=38	=38	=38	=38	=38	=38	=38	=38	=38	=38	=38	=38	=38	=38	=38	=38	=38
!	!	!	!	!	!	!	!	!	!	!LO:N:vis=1	!	!	!	!	!	!
4CC/	.	4c/	.	(8cc/L	.	2cc\]	.	2c/]	.	2cc\_<	.	2ryy	(8ccc\L	.	(2ccc\_	.
.	.	.	.	8b-/	.	.	.	.	.	.	.	.	8bb-\	.	.	.
4r	.	4r	.	8a/	.	.	.	.	.	.	.	.	8aa\	.	.	.
.	.	.	.	8b-/J)	.	.	.	.	.	.	.	.	8bb-\J)	.	.	.
=39	=39	=39	=39	=39	=39	=39	=39	=39	=39	=39	=39	=39	=39	=39	=39	=39
!	!	!	!	!	!	!	!	!	!	!LO:N:vis=1	!	!	!	!	!	!
4F\	.	4f\	.	4a/	.	8r	.	2c/	.	2cc\_<	.	2ryy	4aa\	.	8ccc\L])	.
.	.	.	.	.	.	(8cc\L	.	.	.	.	.	.	.	.	8ccc|\	.
!	!	!	!	!	!	!LO:TX:t=P:♮above:problem	!	!	!	!	!	!	!	!	!	!
4r	.	4r	.	4r	.	8bn\	.	.	.	.	.	.	4r	.	(8bbn\	.
.	.	.	.	.	.	8cc\J)	.	.	.	.	.	.	.	.	8ccc\J)	.
=40	=40	=40	=40	=40	=40	=40	=40	=40	=40	=40	=40	=40	=40	=40	=40	=40
!	!	!	!	!LO:TX:t=1	!	!	!	!	!	!LO:N:vis=1	!	!	!	!	!	!
4FF/	.	4F/	.	2r	.	(8dd\L	.	2c/	.	2cc\_<	.	2ryy	2r	.	8ddd\L	.
.	.	.	.	.	.	8cc\	.	.	.	.	.	.	.	.	8ccc\	.
!	!	!	!	!	!	!LO:TX:t=P:♮above:problem	!	!	!	!	!	!	!	!	!	!
4r	.	4r	.	.	.	8bn\	.	.	.	.	.	.	.	.	8bbn\	.
.	.	.	.	.	.	8cc\J)	.	.	.	.	.	.	.	.	8ccc\J	.
!LO:LB:g=original	!	!	!	!	!	!	!	!	!	!	!	!	!	!	!	!
=41	=41	=41	=41	=41	=41	=41	=41	=41	=41	=41	=41	=41	=41	=41	=41	=41
!	!	!	!	!	!	!	!	!	!	!LO:N:vis=1	!	!	!	!	!	!
4C/	.	4c/	.	8r	.	2cc\	.	2c/	.	2cc\_<	.	2ryy	8r	.	[2ccc\	.
.	.	.	.	(8b-\L	.	.	.	.	.	.	.	.	(8bb-\L	.	.	.
4r	.	4r	.	8a\	.	.	.	.	.	.	.	.	8aa\	.	.	.
.	.	.	.	8b-\J)	.	.	.	.	.	.	.	.	8bb-\J)	.	.	.
=42	=42	=42	=42	=42	=42	=42	=42	=42	=42	=42	=42	=42	=42	=42	=42	=42
!	!	!	!	!	!	!	!	!	!	!LO:N:vis=1	!	!	!	!	!	!
4c\	.	4cc\	.	8cc\L	.	[<2cc\	.	[2c/	.	2cc\_<	.	2ryy	(8ccc\L	.	2ccc\_	.
.	.	.	.	(8b-\	.	.	.	.	.	.	.	.	8bb-\	.	.	.
4r	.	4r	.	8a\	.	.	.	.	.	.	.	.	8aa\	.	.	.
.	.	.	.	8b-\J)	.	.	.	.	.	.	.	.	8bb-\J)	.	.	.
=43	=43	=43	=43	=43	=43	=43	=43	=43	=43	=43	=43	=43	=43	=43	=43	=43
4F\	.	4f\	.	8a'/L	.	8cc\L]	.	4c/]	.	4cc\]	.	2ryy	8aa\L	.	8ccc\L]	.
.	.	.	.	8a'/J	.	8cc|\	.	.	.	.	.	.	8aa\	.	8ccc\	.
!	!	!	!	!LO:LB:g=original	!	!	!	!	!	!	!	!	!	!	!	!
4r	.	4r	.	8f'/L	.	8a'\	.	4r	.	4r	.	.	8ff\	.	8aa\	.
.	.	.	.	8f'/J	.	8a'\J	.	.	.	.	.	.	8ff\J	.	8aa\J	.
!	!	!	!	!	!	!	!	!	!	!	!	!	!	!	!LO:LB:g=original	!
=44	=44	=44	=44	=44	=44	=44	=44	=44	=44	=44	=44	=44	=44	=44	=44	=44
!	!	!	!	!	!	!	!	!LO:TX:a:t=25	!	!LO:TX:a:t=25	!	!	!	!	!	!
4B-\	.	4b-\	.	8d'/L	.	8f'/L	.	0r	.	0r	.	2ryy	8dd\L	.	8ff\L	.
.	.	.	.	8d'/J	.	8f'/	.	.	.	.	.	.	8dd\	.	8ff\	.
4r	.	4r	.	8B-'/L	.	8d'/	.	.	.	.	.	.	8b-\	.	8dd\	.
.	.	.	.	8B-'/J	.	8d'/J	.	.	.	.	.	.	8b-\J	.	8dd\J	.
!	!	!LO:LB:g=original	!	!	!	!	!	!	!	!	!	!	!	!	!	!
=45	=45	=45	=45	=45	=45	=45	=45	=45	=45	=45	=45	=45	=45	=45	=45	=45
4BB-/	.	4B-/	.	8g|/L	.	8b-/L	.	.	.	.	.	2ryy	8g/L	.	8b-/L	.
.	.	.	.	8g'/	.	8b-/	.	.	.	.	.	.	8g/	.	8b-/	.
4r	.	4r	.	8e-'/	.	8g/	.	.	.	.	.	.	8e-/	.	8g/	.
.	.	.	.	8e-'/J	.	8g/J	.	.	.	.	.	.	8e-/J	.	8g/J	.
!	!	!	!	!	!	!LO:LB:g=original	!	!	!	!	!	!	!	!	!	!
=46	=46	=46	=46	=46	=46	=46	=46	=46	=46	=46	=46	=46	=46	=46	=46	=46
!	!	!	!	!	!	!LO:SIC:v:s=4en/	!	!	!	!	!	!	!	!	!	!
4C/	.	4c/	.	4c/	.	4e-/	.	.	.	.	.	2ryy	4c/	.	4en/	.
4r	.	4r	.	4r	.	4r	.	.	.	.	.	.	4r	.	4r	.
=47	=47	=47	=47	=47	=47	=47	=47	=47	=47	=47	=47	=47	=47	=47	=47	=47
!	!	!	!	!	!LO:DY:rj:t=p	!	!	!	!	!	!	!	!LO:TX:a:t=18	!	!LO:TX:a:t=18	!
4F\	.	4f\	.	(8A/L	p	2f|/	.	.	.	.	.	2ryy	0r	.	0r	.
.	.	.	.	8c/)	.	.	.	.	.	.	.	.	.	.	.	.
8C\L	.	8c/L	.	(8A/	.	.	.	.	.	.	.	.	.	.	.	.
8AA\J	.	8A/J	.	8c/J)	.	.	.	.	.	.	.	.	.	.	.	.
=48	=48	=48	=48	=48	=48	=48	=48	=48	=48	=48	=48	=48	=48	=48	=48	=48
4FF/	.	4F/	.	4A/	.	(8b-\L	.	0r	.	0r	.	2ryy	.	.	.	.
.	.	.	.	.	.	8a\)	.	.	.	.	.	.	.	.	.	.
4r	.	4r	.	4r	.	8g'\	.	.	.	.	.	.	.	.	.	.
.	.	.	.	.	.	8f'\J	.	.	.	.	.	.	.	.	.	.
=49	=49	=49	=49	=49	=49	=49	=49	=49	=49	=49	=49	=49	=49	=49	=49	=49
4F\	.	4f\	.	2f/	.	2a/	.	.	.	.	.	2ryy	.	.	.	.
4C\	.	8c/L	.	.	.	.	.	.	.	.	.	.	.	.	.	.
.	.	8A/J	.	.	.	.	.	.	.	.	.	.	.	.	.	.
!	!	!	!	!LO:LB:g=original	!	!	!	!	!	!	!	!	!	!	!	!
=50	=50	=50	=50	=50	=50	=50	=50	=50	=50	=50	=50	=50	=50	=50	=50	=50
4FF/	.	4F/	.	(8b-/L	.	(8dd\L	.	.	.	.	.	2ryy	.	.	.	.
.	.	.	.	8a/	.	8cc\	.	.	.	.	.	.	.	.	.	.
4r	.	4r	.	8g/)	.	8b-\	.	.	.	.	.	.	.	.	.	.
.	.	.	.	8f|/J	.	8a\J)	.	.	.	.	.	.	.	.	.	.
=51	=51	=51	=51	=51	=51	=51	=51	=51	=51	=51	=51	=51	=51	=51	=51	=51
!LO:TX:a:t=4	!	!LO:TX:a:t=4	!	!	!	!	!	!	!	!	!	!	!	!	!	!
0r	.	0r	.	8B-/L	.	8g/L	.	.	.	.	.	2ryy	0r	.	0r	.
.	.	.	.	8B-/	.	8g/	.	.	.	.	.	.	.	.	.	.
.	.	.	.	8A/	.	8f#X/	.	.	.	.	.	.	.	.	.	.
.	.	.	.	8A/J	.	8f#/J	.	.	.	.	.	.	.	.	.	.
=52	=52	=52	=52	=52	=52	=52	=52	=52	=52	=52	=52	=52	=52	=52	=52	=52
.	.	.	.	8B-/L	.	8g/L	.	0r	.	0r	.	2ryy	.	.	.	.
.	.	.	.	8B-/	.	8g/	.	.	.	.	.	.	.	.	.	.
.	.	.	.	8f#X/	.	8a/	.	.	.	.	.	.	.	.	.	.
.	.	.	.	8f#/J	.	8a/J	.	.	.	.	.	.	.	.	.	.
=53	=53	=53	=53	=53	=53	=53	=53	=53	=53	=53	=53	=53	=53	=53	=53	=53
.	.	.	.	8g/L	.	8b-/L	.	.	.	.	.	2ryy	.	.	.	.
.	.	.	.	8g/	.	8b-/	.	.	.	.	.	.	.	.	.	.
.	.	.	.	8f#X/	.	8a/	.	.	.	.	.	.	.	.	.	.
.	.	.	.	8f#/J	.	8a/J	.	.	.	.	.	.	.	.	.	.
=54	=54	=54	=54	=54	=54	=54	=54	=54	=54	=54	=54	=54	=54	=54	=54	=54
.	.	.	.	8g/L	.	8b-\L	.	.	.	.	.	2ryy	.	.	.	.
.	.	.	.	8g/	.	8b-\	.	.	.	.	.	.	.	.	.	.
.	.	.	.	8a/	.	8cc\	.	.	.	.	.	.	.	.	.	.
.	.	.	.	8a/J	.	8cc\J	.	.	.	.	.	.	.	.	.	.
!	!	!	!	!LO:LB:g=original	!	!LO:LB:g=original	!	!	!	!	!	!	!	!	!	!
=55	=55	=55	=55	=55	=55	=55	=55	=55	=55	=55	=55	=55	=55	=55	=55	=55
.	.	.	.	8qqa/	.	8qqcc#X/	.	.	.	.	.	.	.	.	.	.
4B-\	.	4b-\	.	2b-/	.	2dd\	.	.	.	.	.	2ryy	0r	.	0r	.
4r	.	4r	.	.	.	.	.	.	.	.	.	.	.	.	.	.
!LO:LB:g=original	!	!	!	!	!	!	!	!	!	!	!	!	!	!	!	!
=56	=56	=56	=56	=56	=56	=56	=56	=56	=56	=56	=56	=56	=56	=56	=56	=56
4BB-/	.	4B-/	.	(8een\L	.	(8gg\L	.	0r	.	0r	.	2ryy	.	.	.	.
.	.	.	.	8dd\	.	8ff\)	.	.	.	.	.	.	.	.	.	.
!	!	!	!	!	!	!LO:SIC:v:s=4een\	!	!	!	!	!	!	!	!	!	!
4r	.	4r	.	8cc\	.	8ee-'\	.	.	.	.	.	.	.	.	.	.
.	.	.	.	8b-|\J)	.	8dd'\J	.	.	.	.	.	.	.	.	.	.
=57	=57	=57	=57	=57	=57	=57	=57	=57	=57	=57	=57	=57	=57	=57	=57	=57
.	.	.	.	8qqb-/	.	8qqdd/	.	.	.	.	.	.	.	.	.	.
4C/	.	4c/	.	4a/	.	4cc\	.	.	.	.	.	2ryy	.	.	.	.
4r	.	4r	.	(8g/L	.	8b-\L	.	.	.	.	.	.	.	.	.	.
.	.	.	.	8f/J)	.	8a\J	.	.	.	.	.	.	.	.	.	.
=58	=58	=58	=58	=58	=58	=58	=58	=58	=58	=58	=58	=58	=58	=58	=58	=58
.	.	.	.	8qqa/	.	8qqcc/	.	.	.	.	.	.	.	.	.	.
4CC/	.	4c/	.	4g/	.	4b-\	.	.	.	.	.	2ryy	.	.	.	.
4r	.	4r	.	(8f/L	.	8a/L	.	.	.	.	.	.	.	.	.	.
!	!	!	!	!LO:TX:t=P:♮below:problem	!	!	!	!	!	!	!	!	!	!	!	!
.	.	.	.	8en/J)	.	8g/J	.	.	.	.	.	.	.	.	.	.
=59	=59	=59	=59	=59	=59	=59	=59	=59	=59	=59	=59	=59	=59	=59	=59	=59
4F\	.	4f\	.	8A/L	.	2f/	.	.	.	.	.	2ryy	0r	.	0r	.
.	.	.	.	8c/	.	.	.	.	.	.	.	.	.	.	.	.
4C\	.	4c\	.	8A/	.	.	.	.	.	.	.	.	.	.	.	.
.	.	.	.	8c/J	.	.	.	.	.	.	.	.	.	.	.	.
!	!	!LO:LB:g=original	!	!	!	!	!	!	!	!	!	!	!	!	!	!
=60	=60	=60	=60	=60	=60	=60	=60	=60	=60	=60	=60	=60	=60	=60	=60	=60
4FF/	.	4F/	.	4A/	.	(8b-/L	.	0r	.	0r	.	2ryy	.	.	.	.
.	.	.	.	.	.	8a/)	.	.	.	.	.	.	.	.	.	.
4r	.	4r	.	4r	.	8g'/	.	.	.	.	.	.	.	.	.	.
.	.	.	.	.	.	8f'/J	.	.	.	.	.	.	.	.	.	.
=61	=61	=61	=61	=61	=61	=61	=61	=61	=61	=61	=61	=61	=61	=61	=61	=61
4F\	.	4f\	.	(8f/L	.	2a/	.	.	.	.	.	2ryy	.	.	.	.
.	.	.	.	8a/	.	.	.	.	.	.	.	.	.	.	.	.
4C\	.	4c\	.	8f/	.	.	.	.	.	.	.	.	.	.	.	.
.	.	.	.	8a/J)	.	.	.	.	.	.	.	.	.	.	.	.
=62	=62	=62	=62	=62	=62	=62	=62	=62	=62	=62	=62	=62	=62	=62	=62	=62
4FF/	.	4F/	.	(8b-\L	.	8dd\L	.	.	.	.	.	2ryy	.	.	.	.
.	.	.	.	8a\	.	8cc\	.	.	.	.	.	.	.	.	.	.
4r	.	4r	.	8g\	.	8b-\	.	.	.	.	.	.	.	.	.	.
.	.	.	.	8f\J)	.	8a\J	.	.	.	.	.	.	.	.	.	.
!	!	!	!	!LO:LB:g=original	!	!	!	!	!	!	!	!	!	!	!	!
=63	=63	=63	=63	=63	=63	=63	=63	=63	=63	=63	=63	=63	=63	=63	=63	=63
4BB-/	.	4B-/	.	8d/	.	8g/	.	.	.	.	.	2ryy	1r	.	1r	.
.	.	.	.	8r	.	8r	.	.	.	.	.	.	.	.	.	.
4r	.	4r	.	8g/	.	8b-\	.	.	.	.	.	.	.	.	.	.
.	.	.	.	8r	.	8r	.	.	.	.	.	.	.	.	.	.
=64	=64	=64	=64	=64	=64	=64	=64	=64	=64	=64	=64	=64	=64	=64	=64	=64
!LO:TX:a:t=1	!	!LO:TX:a:t=2	!	!LO:TX:a:t=1	!	!	!	!	!	!	!	!	!	!	!	!
2r	.	1r	.	2r	.	8dd\L	.	0r	.	0r	.	2ryy	.	.	.	.
.	.	.	.	.	.	16dd\L	.	.	.	.	.	.	.	.	.	.
.	.	.	.	.	.	16cc#X\JJ	.	.	.	.	.	.	.	.	.	.
.	.	.	.	.	.	8dd\L	.	.	.	.	.	.	.	.	.	.
.	.	.	.	.	.	16dd\L	.	.	.	.	.	.	.	.	.	.
.	.	.	.	.	.	16cc#X\JJ	.	.	.	.	.	.	.	.	.	.
!	!	!	!	!	!	!LO:LB:g=original	!	!	!	!	!	!	!LO:LB:g=original	!	!	!
=65	=65	=65	=65	=65	=65	=65	=65	=65	=65	=65	=65	=65	=65	=65	=65	=65
4r	.	.	.	4r	.	[2dd\	.	.	.	.	.	2ryy	4r	.	4r	.
4BB-/	.	.	.	[4b-\	.	.	.	.	.	.	.	.	4b-\	p	4dd\	.
=66	=66	=66	=66	=66	=66	=66	=66	=66	=66	=66	=66	=66	=66	=66	=66	=66
4B-\	.	4r	.	(8b-\L]	.	8dd\L]	.	.	.	.	.	2ryy	(8b-\L	.	(8dd\L	.
!	!	!	!	!	!	!LO:SIC:v:s=8een	!	!	!	!	!	!	!	!	!	!
.	.	.	.	8cc\	.	8ee-\	.	.	.	.	.	.	8cc\	.	8een\	.
4BB-/	.	4b-\	.	8dd\	.	(8ff\	.	.	.	.	.	.	8dd\	.	8ff\	.
.	.	.	.	8b-\J)	.	8dd\J)	.	.	.	.	.	.	8b-\J)	.	8dd\J)	.
=67	=67	=67	=67	=67	=67	=67	=67	=67	=67	=67	=67	=67	=67	=67	=67	=67
4AA/	.	4a\	.	4a/	.	4cc\	.	.	.	.	.	2ryy	4a/	.	4cc\	.
.	.	.	.	8qqcc/	.	8qqee-X/	.	.	.	.	.	.	.	.	.	.
4BB-/	.	4b-\	.	8b-/L	.	8dd\L	.	.	.	.	.	.	4r	.	4r	.
.	.	.	.	16a/L	.	16cc\L	.	.	.	.	.	.	.	.	.	.
.	.	.	.	16g/JJ	.	16b-\JJ	.	.	.	.	.	.	.	.	.	.
!LO:LB:g=original	!	!	!	!	!	!	!	!	!	!	!	!	!	!	!	!
=68	=68	=68	=68	=68	=68	=68	=68	=68	=68	=68	=68	=68	=68	=68	=68	=68
*	*	*	*	*tremolo	*	*	*	*	*	*	*	*	*	*	*	*
4C/	.	4cc\	.	16f/LL	.	4a/	.	2r	.	2r	.	2ryy	2cc\	.	4aa\	.
.	.	.	.	16f/	.	.	.	.	.	.	.	.	.	.	.	.
.	.	.	.	16f/	.	.	.	.	.	.	.	.	.	.	.	.
.	.	.	.	16f/JJ	.	.	.	.	.	.	.	.	.	.	.	.
!	!	!	!	!	!	!LO:TX:a:t=t	!	!	!	!	!	!	!	!	!LO:TX:a:t=t	!
4CC/	.	4c\	.	16en/LL	.	4g/	.	.	.	.	.	.	.	.	4gg\	.
.	.	.	.	16en/	.	.	.	.	.	.	.	.	.	.	.	.
.	.	.	.	16en/	.	.	.	.	.	.	.	.	.	.	.	.
.	.	.	.	16en/JJ	.	.	.	.	.	.	.	.	.	.	.	.
!	!	!	!	!	!	!	!	!LO:LB:g=original	!	!LO:LB:g=original	!	!	!	!	!	!
=69	=69	=69	=69	=69	=69	=69	=69	=69	=69	=69	=69	=69	=69	=69	=69	=69
*	*	*tremolo	*	*	*	*	*	*	*	*	*	*	*	*	*	*
!LO:TX:t=P:problem=mixed beam	!LO:HP:t=cre&colon;	!	!LO:DY:t=for&colon;	!	!LO:DY:t=fortiſ&colon;	!LO:DY:rj	!	!	!	!LO:N:vis=1	!LO:HP:t=cre	!	!	!LO:DY:rj	!	!
8FF/L	<	8f\L	f	16a/ 16f/LL	ff	16ff\LL	f	[2f/	f	2ff\	<	2ryy	4a/	f	4ff\	f
.	.	.	.	16a/ 16f/	.	16ff\	.	.	.	.	.	.	.	.	.	.
8F\	.	8f\	.	16a/ 16f/	.	16ff\	.	.	.	.	.	.	.	.	.	.
.	.	.	.	16a/ 16f/JJ	.	16ff\JJ	.	.	.	.	.	.	.	.	.	.
*	*	*	*	*	*	*tremolo	*	*	*	*	*	*	*	*	*	*
8F\	.	8f\	.	16ff\LL	.	16aa\LL	.	.	.	.	.	.	4ff\	.	4aa\	.
.	.	.	.	16ff\	.	16aa\	.	.	.	.	.	.	.	.	.	.
!	!LO:DY:t=fort&colon;	!	!	!	!	!	!	!	!	!	!	!	!	!	!	!
8F\J	f	8f\J	.	16ff\	.	16aa\	.	.	.	.	.	.	.	.	.	.
.	.	.	.	16ff\JJ	.	16aa\JJ	.	.	.	.	.	.	.	.	.	.
=70	=70	=70	=70	=70	=70	=70	=70	=70	=70	=70	=70	=70	=70	=70	=70	=70
*tremolo	*	*	*	*	*	*	*	*	*	*	*	*	*	*	*	*
!	!	!	!	!	!	!	!	!	!	!LO:N:vis=1	!	!	!	!	!	!
8F\L	.	8f\L	.	16aa\LL	.	16ccc\LL	.	2f/_	.	2ff\	.	2ryy	4aa\	.	4ccc\	.
.	.	.	.	16aa\	.	16ccc\	.	.	.	.	.	.	.	.	.	.
8F\	.	8f\	.	16aa\	.	16ccc\	.	.	.	.	.	.	.	.	.	.
.	.	.	.	16aa\JJ	.	16ccc\JJ	.	.	.	.	.	.	.	.	.	.
8F\	.	8f\	.	16ff\LL	.	16aa\LL	.	.	.	.	.	.	4ff\	.	4aa\	.
.	.	.	.	16ff\	.	16aa\	.	.	.	.	.	.	.	.	.	.
8F\J	.	8f\J	.	16ff\	.	16aa\	.	.	.	.	.	.	.	.	.	.
.	.	.	.	16ff\JJ	.	16aa\JJ	.	.	.	.	.	.	.	.	.	.
!	!	!	!	!LO:LB:g=original	!	!	!	!	!	!	!	!	!	!	!	!
=71	=71	=71	=71	=71	=71	=71	=71	=71	=71	=71	=71	=71	=71	=71	=71	=71
!	!	!	!	!	!	!	!	!	!	!LO:N:vis=1	!	!	!	!	!	!
8A\L	.	8a\L	.	16a/LL	.	16ff\LL	.	2f/_	.	[<2ff\	.	2ryy	4cc\	.	4ff\	.
.	.	.	.	16a/	.	16ff\	.	.	.	.	.	.	.	.	.	.
8A\	.	8a\	.	16a/	.	16ff\	.	.	.	.	.	.	.	.	.	.
.	.	.	.	16a/JJ	.	16ff\JJ	.	.	.	.	.	.	.	.	.	.
8A\	.	8a\	.	16a/LL	.	16cc\LL	.	.	.	.	.	.	4a/	.	4cc\	.
.	.	.	.	16a/	.	16cc\	.	.	.	.	.	.	.	.	.	.
8A\J	.	8a\J	.	16a/	.	16cc\	.	.	.	.	.	.	.	.	.	.
.	.	.	.	16a/JJ	.	16cc\JJ	.	.	.	.	.	.	.	.	.	.
*Xtremolo	*	*Xtremolo	*	*	*	*	*	*	*	*	*	*	*	*	*	*
=72	=72	=72	=72	=72	=72	=72	=72	=72	=72	=72	=72	=72	=72	=72	=72	=72
!	!	!	!	!	!	!	!	!	!	!LO:N:vis=1	!	!	!	!	!	!
8B-\L	.	8b-\L	.	16b-/LL	.	16dd\LL	.	2f/_	.	2ff\_<	.	2ryy	4b-\	.	4dd\	.
.	.	.	.	16b-/	.	16dd\	.	.	.	.	.	.	.	.	.	.
8F\	.	8f\	.	16b-/	.	16dd\	.	.	.	.	.	.	.	.	.	.
.	.	.	.	16b-/JJ	.	16dd\JJ	.	.	.	.	.	.	.	.	.	.
8c\	.	8cc\	.	16cc/ 16f/LL	.	16ee-X\LL	.	.	.	.	.	.	4cc\	.	4ee-X\	.
.	.	.	.	16cc/ 16f/	.	16ee-X\	.	.	.	.	.	.	.	.	.	.
8F\J	.	8f\J	.	16cc/ 16f/	.	16ee-X\	.	.	.	.	.	.	.	.	.	.
.	.	.	.	16cc/ 16f/JJ	.	16ee-X\JJ	.	.	.	.	.	.	.	.	.	.
*	*	*	*	*Xtremolo	*	*Xtremolo	*	*	*	*	*	*	*	*	*	*
!	!	!LO:LB:g=original	!	!	!	!	!	!	!	!	!	!	!	!	!LO:LB:g=original	!
=73	=73	=73	=73	=73	=73	=73	=73	=73	=73	=73	=73	=73	=73	=73	=73	=73
4B-\	.	4b-\	.	8dd\L	.	8dd\L	.	4f/]	.	4ff\]	.	2ryy	4b-\	.	4dd\	.
.	.	.	.	16ee-\L	.	16ee-\L	.	.	.	.	.	.	.	.	.	.
.	.	.	.	16ff#X\JJ	.	16ff#X\JJ	.	.	.	.	.	.	.	.	.	.
4r	.	4r	.	16gg\LL	.	16gg\LL	.	4r	.	4r	.	.	4r	.	4r	.
.	.	.	.	16aa\	.	16aa\	.	.	.	.	.	.	.	.	.	.
.	.	.	.	16bb-\	.	16bb-X\	.	.	.	.	.	.	.	.	.	.
!	!	!	!	!LO:TX:t=P:♮above:problem	!	!	!	!	!	!	!	!	!	!	!	!
.	.	.	.	16cccn\JJ	.	16ccc\JJ	.	.	.	.	.	.	.	.	.	.
!	!	!	!	!	!	!LO:LB:g=original	!	!	!	!	!	!	!	!	!	!
=74	=74	=74	=74	=74	=74	=74	=74	=74	=74	=74	=74	=74	=74	=74	=74	=74
!	!	!	!	!	!	!	!	!	!	!LO:TX:a:t=1	!	!	!LO:TX:a:t=1	!	!LO:TX:a:t=1	!
4r	.	4r	.	16ddd\LL	.	16ddd\LL	.	2r	.	2r	.	2ryy	2r	.	2r	.
.	.	.	.	16ccc\	.	16ccc\	.	.	.	.	.	.	.	.	.	.
.	.	.	.	16bb-\	.	16bb-\	.	.	.	.	.	.	.	.	.	.
.	.	.	.	16aa\JJ	.	16aa\JJ	.	.	.	.	.	.	.	.	.	.
4BB-/	.	4B-/	.	16gg\LL	.	16gg\LL	.	.	.	.	.	.	.	.	.	.
.	.	.	.	16ffn\	.	16ff\	.	.	.	.	.	.	.	.	.	.
.	.	.	.	16ee-\	.	16ee-\	.	.	.	.	.	.	.	.	.	.
.	.	.	.	16dd\JJ	.	16dd\JJ	.	.	.	.	.	.	.	.	.	.
=75	=75	=75	=75	=75	=75	=75	=75	=75	=75	=75	=75	=75	=75	=75	=75	=75
*	*	*	*	*tremolo	*	*	*	*	*	*	*	*	*	*	*	*
*tremolo	*	*tremolo	*	*2\right	*	*	*	*	*	*	*	*	*	*	*	*
!	!	!	!	!	!	!	!	!	!	!LO:N:vis=1	!	!	!	!	!	!
8C/L	.	8c/L	.	16cc\LL	.	2cc\	.	[2c/	.	[<2cc\	.	2ryy	2ff\	.	2aa\	.
.	.	.	.	16cc\	.	.	.	.	.	.	.	.	.	.	.	.
8C/	.	8c/	.	16cc\	.	.	.	.	.	.	.	.	.	.	.	.
.	.	.	.	16cc\	.	.	.	.	.	.	.	.	.	.	.	.
8C/	.	8c/	.	16cc\	.	.	.	.	.	.	.	.	.	.	.	.
.	.	.	.	16cc\	.	.	.	.	.	.	.	.	.	.	.	.
8C/J	.	8c/J	.	16cc\	.	.	.	.	.	.	.	.	.	.	.	.
.	.	.	.	16cc\JJ	.	.	.	.	.	.	.	.	.	.	.	.
=76	=76	=76	=76	=76	=76	=76	=76	=76	=76	=76	=76	=76	=76	=76	=76	=76
!	!	!	!	!	!	!LO:TX:a:t=t	!	!	!	!LO:N:vis=1	!	!	!LO:SIC:v:s=2een\	!	!LO:TX:a:t=t	!
8CC/L	.	8C/L	.	16cc\LL	.	2gg\	.	2c/]	.	(<2cc\]	.	2ryy	2ee-T\	.	2gg\	.
.	.	.	.	16cc\	.	.	.	.	.	.	.	.	.	.	.	.
8CC/	.	8C/	.	16cc\	.	.	.	.	.	.	.	.	.	.	.	.
.	.	.	.	16cc\	.	.	.	.	.	.	.	.	.	.	.	.
8CC/	.	8C/	.	16cc\	.	.	.	.	.	.	.	.	.	.	.	.
.	.	.	.	16cc\	.	.	.	.	.	.	.	.	.	.	.	.
8CC/J	.	8C/J	.	16cc\	.	.	.	.	.	.	.	.	.	.	.	.
.	.	.	.	16cc\JJ	.	.	.	.	.	.	.	.	.	.	.	.
!	!	!	!	!	!	!	!	!	!	!	!	!	!LO:LB:g=original	!	!	!
=77	=77	=77	=77	=77	=77	=77	=77	=77	=77	=77	=77	=77	=77	=77	=77	=77
*	*	*	*	*	*	*tremolo	*	*	*	*	*	*	*	*	*	*
!	!	!	!	!	!	!	!	!	!	!LO:N:vis=1	!	!	!	!	!	!
8FF/L	.	8F/L	.	16a/ 16f/LL	.	16ff\LL	.	[2f/	.	[<2ff\)	.	2ryy	4ff\	.	4ff\	.
.	.	.	.	16a/ 16f/	.	16ff\	.	.	.	.	.	.	.	.	.	.
8FF/	.	8F/	.	16a/ 16f/	.	16ff\	.	.	.	.	.	.	.	.	.	.
.	.	.	.	16a/ 16f/JJ	.	16ff\JJ	.	.	.	.	.	.	.	.	.	.
8FF/	.	8F/	.	16ff\LL	.	16aa\LL	.	.	.	.	.	.	4ff\	.	4aa\	.
.	.	.	.	16ff\	.	16aa\	.	.	.	.	.	.	.	.	.	.
8FF/J	.	8F/J	.	16ff\	.	16aa\	.	.	.	.	.	.	.	.	.	.
.	.	.	.	16ff\JJ	.	16aa\JJ	.	.	.	.	.	.	.	.	.	.
!	!	!	!	!LO:LB:g=original	!	!	!	!	!	!	!	!	!	!	!	!
=78	=78	=78	=78	=78	=78	=78	=78	=78	=78	=78	=78	=78	=78	=78	=78	=78
!	!	!	!	!	!	!	!	!	!	!LO:N:vis=1	!	!	!	!	!	!
8F\L	.	8F/L	.	16aa\LL	.	16ccc\LL	.	2f/]	.	2ff\_<	.	2ryy	4aa\	.	4ccc\	.
.	.	.	.	16aa\	.	16ccc\	.	.	.	.	.	.	.	.	.	.
8F\	.	8F/	.	16aa\	.	16ccc\	.	.	.	.	.	.	.	.	.	.
.	.	.	.	16aa\JJ	.	16ccc\JJ	.	.	.	.	.	.	.	.	.	.
8F\	.	8F/	.	16ff\LL	.	16aa\LL	.	.	.	.	.	.	4ff\	.	4aa\	.
.	.	.	.	16ff\	.	16aa\	.	.	.	.	.	.	.	.	.	.
8F\J	.	8F/J	.	16ff\	.	16aa\	.	.	.	.	.	.	.	.	.	.
.	.	.	.	16ff\JJ	.	16aa\JJ	.	.	.	.	.	.	.	.	.	.
=79	=79	=79	=79	=79	=79	=79	=79	=79	=79	=79	=79	=79	=79	=79	=79	=79
!	!	!	!	!	!	!	!	!	!	!LO:N:vis=1	!	!	!	!	!	!
8A\L	.	8A/L	.	16a/LL	.	16ff\LL	.	2f/	.	2ff\]	.	2ryy	4cc\	.	4ff\	.
.	.	.	.	16a/	.	16ff\	.	.	.	.	.	.	.	.	.	.
8A\	.	8A/	.	16a/	.	16ff\	.	.	.	.	.	.	.	.	.	.
.	.	.	.	16a/	.	16ff\JJ	.	.	.	.	.	.	.	.	.	.
8A\	.	8A/	.	16a/	.	16cc\LL	.	.	.	.	.	.	4a/	.	4cc\	.
.	.	.	.	16a/	.	16cc\	.	.	.	.	.	.	.	.	.	.
8A\J	.	8A/J	.	16a/	.	16cc\	.	.	.	.	.	.	.	.	.	.
.	.	.	.	16a/JJ	.	16cc\JJ	.	.	.	.	.	.	.	.	.	.
*Xtremolo	*	*Xtremolo	*	*	*	*	*	*	*	*	*	*	*	*	*	*
!LO:LB:g=original	!	!	!	!	!	!	!	!	!	!	!	!	!	!	!	!
=80	=80	=80	=80	=80	=80	=80	=80	=80	=80	=80	=80	=80	=80	=80	=80	=80
!	!	!	!	!	!	!	!	!	!	!LO:N:vis=1	!	!	!	!	!	!
8B-\L	.	8B-/L	.	16b-\LL	.	16dd\LL	.	2f/	.	2ff\	.	2ryy	4b-\	.	4dd\	.
.	.	.	.	16b-\	.	16dd\	.	.	.	.	.	.	.	.	.	.
8F\	.	8F/	.	16b-\	.	16dd\	.	.	.	.	.	.	.	.	.	.
.	.	.	.	16b-\JJ	.	16dd\JJ	.	.	.	.	.	.	.	.	.	.
!	!	!	!	!	!	!	!	!	!	!	!	!	!	!	!LO:TX:t=P:♭above:problem	!
8c\	.	8c/	.	16cc\LL	.	16ee-X\LL	.	.	.	.	.	.	4cc\	.	4ee-X\	.
.	.	.	.	16cc\	.	16ee-X\	.	.	.	.	.	.	.	.	.	.
8F\J	.	8F/J	.	16cc\	.	16ee-X\	.	.	.	.	.	.	.	.	.	.
.	.	.	.	16cc\JJ	.	16ee-X\JJ	.	.	.	.	.	.	.	.	.	.
*	*	*	*	*Xtremolo	*	*Xtremolo	*	*	*	*	*	*	*	*	*	*
!	!	!	!	!	!	!	!	!LO:LB:g=original	!	!LO:LB:g=original	!	!	!	!	!	!
=81	=81	=81	=81	=81	=81	=81	=81	=81	=81	=81	=81	=81	=81	=81	=81	=81
4B-\	.	4B-/	.	8dd\L	.	8dd\L	.	4f/	.	4ff\	.	2ryy	4b-\	.	4dd\	.
.	.	.	.	16ee-\L	.	16ee-\L	.	.	.	.	.	.	.	.	.	.
.	.	.	.	16ff#X\JJ	.	16ff#X\JJ	.	.	.	.	.	.	.	.	.	.
4r	.	4r	.	16gg\LL	.	16gg\LL	.	4r	.	4r	.	.	4r	.	4r	.
.	.	.	.	16aa\	.	16aa\	.	.	.	.	.	.	.	.	.	.
.	.	.	.	16bb-\	.	16bb-X\	.	.	.	.	.	.	.	.	.	.
.	.	.	.	16cccn\JJ	.	16ccc\JJ	.	.	.	.	.	.	.	.	.	.
=82	=82	=82	=82	=82	=82	=82	=82	=82	=82	=82	=82	=82	=82	=82	=82	=82
!	!	!	!	!	!	!	!	!	!	!	!	!	!LO:TX:a:t=1	!	!LO:TX:a:t=1	!
4r	.	4r	.	16ddd\LL	.	16ddd\LL	.	2r	.	2r	.	2ryy	2r	.	2r	.
.	.	.	.	16ccc\	.	16ccc\	.	.	.	.	.	.	.	.	.	.
.	.	.	.	16bb-\	.	16bb-\	.	.	.	.	.	.	.	.	.	.
.	.	.	.	16aa\JJ	.	16aa\JJ	.	.	.	.	.	.	.	.	.	.
4B-\	.	4B-/	.	16gg\LL	.	16gg\LL	.	.	.	.	.	.	.	.	.	.
.	.	.	.	16ffn\	.	16ff\	.	.	.	.	.	.	.	.	.	.
.	.	.	.	16ee-\	.	16ee-\	.	.	.	.	.	.	.	.	.	.
.	.	.	.	16dd\JJ	.	16dd\JJ	.	.	.	.	.	.	.	.	.	.
!	!	!	!	!	!	!LO:PB:g=original	!	!	!	!	!	!	!	!	!	!
=83	=83	=83	=83	=83	=83	=83	=83	=83	=83	=83	=83	=83	=83	=83	=83	=83
*tremolo	*	*tremolo	*	*tremolo	*	*	*	*	*	*	*	*	*	*	*	*
!	!	!	!	!	!	!	!	!	!	!LO:N:vis=1	!	!	!	!	!	!
8c\L	.	8c/L	.	16cc\LL	.	2cc\	.	2c/	.	2cc\	.	2ryy	2ff\	.	2aa\	.
.	.	.	.	16cc\	.	.	.	.	.	.	.	.	.	.	.	.
8c\	.	8c/	.	16cc\	.	.	.	.	.	.	.	.	.	.	.	.
.	.	.	.	16cc\	.	.	.	.	.	.	.	.	.	.	.	.
8c\	.	8c/	.	16cc\	.	.	.	.	.	.	.	.	.	.	.	.
.	.	.	.	16cc\	.	.	.	.	.	.	.	.	.	.	.	.
8c\J	.	8c/J	.	16cc\	.	.	.	.	.	.	.	.	.	.	.	.
.	.	.	.	16cc\JJ	.	.	.	.	.	.	.	.	.	.	.	.
=84	=84	=84	=84	=84	=84	=84	=84	=84	=84	=84	=84	=84	=84	=84	=84	=84
*	*	*	*	*^	*	*	*	*	*	*	*	*	*	*	*	*
*	*	*	*	*	*tremolo	*	*	*	*	*	*	*	*	*	*	*	*
!	!	!	!	!	!	!	!	!	!	!	!	!	!	!LO:SIC:v:s=2een\	!	!	!
!	!	!	!	!	!	!	!LO:TX:a:t=t	!	!	!	!LO:N:vis=1	!	!	!LO:TX:a:t=t	!	!LO:TX:a:t=t	!
8C/L	.	8c/L	.	16een/LL	16cc\LL	.	2gg\	.	2c/	.	2cc\	.	2ryy	2ee-\	.	2gg\	.
.	.	.	.	16een/	16cc\	.	.	.	.	.	.	.	.	.	.	.	.
8C/	.	8c/	.	16een/	16cc\	.	.	.	.	.	.	.	.	.	.	.	.
.	.	.	.	16een/	16cc\	.	.	.	.	.	.	.	.	.	.	.	.
8C/	.	8c/	.	16een/	16cc\	.	.	.	.	.	.	.	.	.	.	.	.
.	.	.	.	16een/	16cc\	.	.	.	.	.	.	.	.	.	.	.	.
8C/J	.	8c/J	.	16een/	16cc\	.	.	.	.	.	.	.	.	.	.	.	.
.	.	.	.	16een/JJ	16cc\JJ	.	.	.	.	.	.	.	.	.	.	.	.
*Xtremolo	*	*Xtremolo	*	*Xtremolo	*Xtremolo	*	*	*	*	*	*	*	*	*	*	*	*
*	*	*	*	*v	*v	*	*	*	*	*	*	*	*	*	*	*	*
!	!	!LO:LB:g=original	!	!LO:LB:g=original	!	!	!	!	!	!	!	!	!	!	!	!
=85	=85	=85	=85	=85	=85	=85	=85	=85	=85	=85	=85	=85	=85	=85	=85	=85
!LO:TX:t=P:problem=mixed beam	!	!	!	!	!	!	!	!	!	!	!	!	!	!	!	!
8FF/L	.	4c/ 4F/	.	4ff/ 4a/	.	4ff\	.	4f/	.	4ff\	.	2ryy	4ff\	.	4ff\	.
8F\	.	.	.	.	.	.	.	.	.	.	.	.	.	.	.	.
8C\	.	4c/ 4F/	.	4a/ 4f/ 4c/	.	4f/ 4A/	.	4f/	.	4ff\	.	.	4a/	.	4ff\	.
8AA\J	.	.	.	.	.	.	.	.	.	.	.	.	.	.	.	.
=86	=86	=86	=86	=86	=86	=86	=86	=86	=86	=86	=86	=86	=86	=86	=86	=86
2FF/	.	4c/ 4F/	.	4a/ 4f/ 4c/	.	4f/ 4A/	.	2f/	.	2ff\	.	2ryy	4a/	.	4ff\	.
.	.	4r	.	4r	.	4r	.	.	.	.	.	.	4r	.	4r	.
!	!	!	!	!	!	!	!	!	!	!	!	!	!	!	!LO:LB:g=original	!
=87:|!|:	=87:|!|:	=87:|!|:	=87:|!|:	=87:|!|:	=87:|!|:	=87:|!|:	=87:|!|:	=87:|!|:	=87:|!|:	=87:|!|:	=87:|!|:	=87:|!|:	=87:|!|:	=87:|!|:	=87:|!|:	=87:|!|:
*>B	*	*>B	*	*>B	*	*>B	*	*>B	*	*>B	*	*>B	*>B	*	*>B	*
!	!LO:DY:rj	!	!	!LO:TX:a:t=2	!	!	!	!LO:TX:a:t=30	!	!LO:TX:a:t=30	!	!	!LO:TX:a:t=30	!	!LO:TX:a:t=30	!
[2F\	p	[2f\	p	1r	.	8r	p	0r	.	0r	.	2ryy	0r	.	0r	.
.	.	.	.	.	.	(8cc\L	.	.	.	.	.	.	.	.	.	.
.	.	.	.	.	.	8bn\	.	.	.	.	.	.	.	.	.	.
.	.	.	.	.	.	8cc\J)	.	.	.	.	.	.	.	.	.	.
=88	=88	=88	=88	=88	=88	=88	=88	=88	=88	=88	=88	=88	=88	=88	=88	=88
(<2F\]	.	2f\]	.	.	.	(8dd\L	.	.	.	.	.	2ryy	.	.	.	.
.	.	.	.	.	.	8cc\	.	.	.	.	.	.	.	.	.	.
.	.	.	.	.	.	8b-X\	.	.	.	.	.	.	.	.	.	.
.	.	.	.	.	.	8a\J)	.	.	.	.	.	.	.	.	.	.
=89	=89	=89	=89	=89	=89	=89	=89	=89	=89	=89	=89	=89	=89	=89	=89	=89
[2G\)	.	[2g\	.	8r	p	[<2b-X\	.	.	.	.	.	2ryy	.	.	.	.
.	.	.	.	(8f/L	.	.	.	.	.	.	.	.	.	.	.	.
.	.	.	.	8en/	.	.	.	.	.	.	.	.	.	.	.	.
.	.	.	.	8f/J)	.	.	.	.	.	.	.	.	.	.	.	.
=90	=90	=90	=90	=90	=90	=90	=90	=90	=90	=90	=90	=90	=90	=90	=90	=90
(2G\]	.	2g\]	.	8g/L	.	2b-\]	.	.	.	.	.	2ryy	.	.	.	.
.	.	.	.	8f/	.	.	.	.	.	.	.	.	.	.	.	.
.	.	.	.	8en/	.	.	.	.	.	.	.	.	.	.	.	.
.	.	.	.	8f/J	.	.	.	.	.	.	.	.	.	.	.	.
!LO:LB:g=original	!	!	!	!	!	!	!	!	!	!	!	!	!	!	!	!
=91	=91	=91	=91	=91	=91	=91	=91	=91	=91	=91	=91	=91	=91	=91	=91	=91
!LO:TX:t=P:problem=brak zakończenia łuku	!	!	!	!	!	!	!	!	!	!	!	!	!	!	!	!
[2C/)	.	[2c/	.	[2en/	.	8r	.	0r	.	0r	.	2ryy	0r	.	0r	.
.	.	.	.	.	.	(8b-X\L	.	.	.	.	.	.	.	.	.	.
.	.	.	.	.	.	8a\	.	.	.	.	.	.	.	.	.	.
.	.	.	.	.	.	8b-\J)	.	.	.	.	.	.	.	.	.	.
=92	=92	=92	=92	=92	=92	=92	=92	=92	=92	=92	=92	=92	=92	=92	=92	=92
2C/]	.	2c/]	.	2e/]	.	8cc\L	.	.	.	.	.	2ryy	.	.	.	.
.	.	.	.	.	.	8b-\	.	.	.	.	.	.	.	.	.	.
.	.	.	.	.	.	8a\	.	.	.	.	.	.	.	.	.	.
.	.	.	.	.	.	8g\J	.	.	.	.	.	.	.	.	.	.
!	!	!	!	!LO:PB:g=original	!	!LO:LB:g=original	!	!	!	!	!	!	!	!	!	!
=93	=93	=93	=93	=93	=93	=93	=93	=93	=93	=93	=93	=93	=93	=93	=93	=93
[2F\	.	[2f\	.	8r	.	2a/	.	.	.	.	.	2ryy	.	.	.	.
.	.	.	.	(8e-X/L	.	.	.	.	.	.	.	.	.	.	.	.
.	.	.	.	8d/	.	.	.	.	.	.	.	.	.	.	.	.
.	.	.	.	8e-/J)	.	.	.	.	.	.	.	.	.	.	.	.
=94	=94	=94	=94	=94	=94	=94	=94	=94	=94	=94	=94	=94	=94	=94	=94	=94
2F\]	.	2f\]	.	(8f/L	.	2a/	.	.	.	.	.	2ryy	.	.	.	.
.	.	.	.	8e-/	.	.	.	.	.	.	.	.	.	.	.	.
.	.	.	.	8d/)	.	.	.	.	.	.	.	.	.	.	.	.
.	.	.	.	8e-/J	.	.	.	.	.	.	.	.	.	.	.	.
=95	=95	=95	=95	=95	=95	=95	=95	=95	=95	=95	=95	=95	=95	=95	=95	=95
2BB-/	.	2B-/	.	2d/	.	8r	.	0r	.	0r	.	2ryy	0r	.	0r	.
!	!	!	!	!	!	!LO:TX:t=P:♭below:problem	!	!	!	!	!	!	!	!	!	!
.	.	.	.	.	.	8a-X/L	.	.	.	.	.	.	.	.	.	.
.	.	.	.	.	.	8g/	.	.	.	.	.	.	.	.	.	.
.	.	.	.	.	.	8a-/J	.	.	.	.	.	.	.	.	.	.
=96	=96	=96	=96	=96	=96	=96	=96	=96	=96	=96	=96	=96	=96	=96	=96	=96
2BB-/	.	2B-/	.	2d/	.	8b-X/L	.	.	.	.	.	2ryy	.	.	.	.
!	!	!	!	!	!	!LO:SIC:v:s=8a-/	!	!	!	!	!	!	!	!	!	!
.	.	.	.	.	.	8a/	.	.	.	.	.	.	.	.	.	.
.	.	.	.	.	.	8b-/	.	.	.	.	.	.	.	.	.	.
!	!	!	!	!	!	!LO:SIC:v:s=8a-/	!	!	!	!	!	!	!	!	!	!
.	.	.	.	.	.	8a/J	.	.	.	.	.	.	.	.	.	.
!	!	!LO:LB:g=original	!	!	!	!	!	!	!	!	!	!	!	!	!	!
=97	=97	=97	=97	=97	=97	=97	=97	=97	=97	=97	=97	=97	=97	=97	=97	=97
[2E-\	.	[2e-\	.	8r	.	[2g/	.	.	.	.	.	2ryy	.	.	.	.
.	.	.	.	(8e-/L	.	.	.	.	.	.	.	.	.	.	.	.
.	.	.	.	8d/	.	.	.	.	.	.	.	.	.	.	.	.
.	.	.	.	8e-/J)	.	.	.	.	.	.	.	.	.	.	.	.
=98	=98	=98	=98	=98	=98	=98	=98	=98	=98	=98	=98	=98	=98	=98	=98	=98
(2E-\]	.	(<2e-\]	.	8f|/L	.	2g/]	.	.	.	.	.	2ryy	.	.	.	.
.	.	.	.	(8e-/	.	.	.	.	.	.	.	.	.	.	.	.
.	.	.	.	8d/	.	.	.	.	.	.	.	.	.	.	.	.
.	.	.	.	8e-/J)	.	.	.	.	.	.	.	.	.	.	.	.
=99	=99	=99	=99	=99	=99	=99	=99	=99	=99	=99	=99	=99	=99	=99	=99	=99
[2C/)	.	2c\)	.	[2e-/	.	8r	.	0r	.	0r	.	2ryy	0r	.	0r	.
.	.	.	.	.	.	8an/L	.	.	.	.	.	.	.	.	.	.
.	.	.	.	.	.	8g/	.	.	.	.	.	.	.	.	.	.
.	.	.	.	.	.	8a/J	.	.	.	.	.	.	.	.	.	.
=100	=100	=100	=100	=100	=100	=100	=100	=100	=100	=100	=100	=100	=100	=100	=100	=100
(2C/]	.	2c\	.	2e-/]	.	8b-/L	.	.	.	.	.	2ryy	.	.	.	.
.	.	.	.	.	.	8an/	.	.	.	.	.	.	.	.	.	.
.	.	.	.	.	.	8g/	.	.	.	.	.	.	.	.	.	.
.	.	.	.	.	.	8a/J	.	.	.	.	.	.	.	.	.	.
=101	=101	=101	=101	=101	=101	=101	=101	=101	=101	=101	=101	=101	=101	=101	=101	=101
!	!	!LO:TX:t=P:♭above:problem	!	!	!	!	!	!	!	!	!	!	!	!	!	!
4BB-/)	.	4B-X/	.	4d/	.	8b-|\L	.	.	.	.	.	2ryy	.	.	.	.
.	.	.	.	.	.	(8ff\	.	.	.	.	.	.	.	.	.	.
4r	.	4r	.	4r	.	8een\	.	.	.	.	.	.	.	.	.	.
.	.	.	.	.	.	8ff\J)	.	.	.	.	.	.	.	.	.	.
!	!	!	!	!LO:LB:g=original	!	!	!	!	!	!	!	!	!	!	!	!
=102	=102	=102	=102	=102	=102	=102	=102	=102	=102	=102	=102	=102	=102	=102	=102	=102
!	!	!	!	!LO:TX:a:t=1	!	!	!	!	!	!	!	!	!	!	!	!
2r	.	2r	.	2r	.	8gg\L	.	.	.	.	.	2ryy	.	.	.	.
.	.	.	.	.	.	(8ff\	.	.	.	.	.	.	.	.	.	.
.	.	.	.	.	.	8ee-X\	.	.	.	.	.	.	.	.	.	.
.	.	.	.	.	.	8dd\J)	.	.	.	.	.	.	.	.	.	.
!LO:LB:g=original	!	!	!	!	!	!LO:LB:g=original	!	!	!	!	!	!	!	!	!	!
=103	=103	=103	=103	=103	=103	=103	=103	=103	=103	=103	=103	=103	=103	=103	=103	=103
[2G\	.	[2g\	.	8r	.	[<2ee-X\	.	0r	.	0r	.	2ryy	0r	.	0r	.
.	.	.	.	(8b-X\L	.	.	.	.	.	.	.	.	.	.	.	.
.	.	.	.	8an\	.	.	.	.	.	.	.	.	.	.	.	.
.	.	.	.	8b-\J)	.	.	.	.	.	.	.	.	.	.	.	.
=104	=104	=104	=104	=104	=104	=104	=104	=104	=104	=104	=104	=104	=104	=104	=104	=104
2G\]	.	2g\]	.	8cc\L	.	2ee-\]	.	.	.	.	.	2ryy	.	.	.	.
.	.	.	.	(8b-\	.	.	.	.	.	.	.	.	.	.	.	.
.	.	.	.	8a\	.	.	.	.	.	.	.	.	.	.	.	.
.	.	.	.	8b-\J)	.	.	.	.	.	.	.	.	.	.	.	.
=105	=105	=105	=105	=105	=105	=105	=105	=105	=105	=105	=105	=105	=105	=105	=105	=105
2F\	.	2f\	.	2a/	.	8r	.	.	.	.	.	2ryy	.	.	.	.
.	.	.	.	.	.	8ee-\L	.	.	.	.	.	.	.	.	.	.
.	.	.	.	.	.	8dd\	.	.	.	.	.	.	.	.	.	.
.	.	.	.	.	.	8ee-\J	.	.	.	.	.	.	.	.	.	.
=106	=106	=106	=106	=106	=106	=106	=106	=106	=106	=106	=106	=106	=106	=106	=106	=106
2F\	.	2f\	.	2a/	.	8ff\L	.	.	.	.	.	2ryy	.	.	.	.
.	.	.	.	.	.	(8ee-\	.	.	.	.	.	.	.	.	.	.
.	.	.	.	.	.	8dd\	.	.	.	.	.	.	.	.	.	.
.	.	.	.	.	.	8ee-\J)	.	.	.	.	.	.	.	.	.	.
=107	=107	=107	=107	=107	=107	=107	=107	=107	=107	=107	=107	=107	=107	=107	=107	=107
8r	.	8r	.	[<2b-X\	.	[<2dd\	.	0r	.	0r	.	2ryy	0r	.	0r	.
!	!LO:HP:t=cresc	!	!	!	!	!	!	!	!	!	!	!	!	!	!	!
(8BB-/L	<	(8B-/L	.	.	.	.	.	.	.	.	.	.	.	.	.	.
8BBn/	.	8Bn/	.	.	.	.	.	.	.	.	.	.	.	.	.	.
8C/J	.	8c/J	.	.	.	.	.	.	.	.	.	.	.	.	.	.
=108	=108	=108	=108	=108	=108	=108	=108	=108	=108	=108	=108	=108	=108	=108	=108	=108
8C#X/L	.	8c#X/L	.	2b-\_<	.	2dd\_<	.	.	.	.	.	2ryy	.	.	.	.
8D/	.	8d/)	.	.	.	.	.	.	.	.	.	.	.	.	.	.
8E-X/	.	8e-X/	.	.	.	.	.	.	.	.	.	.	.	.	.	.
8En/J)	.	8en/J	.	.	.	.	.	.	.	.	.	.	.	.	.	.
!	!	!LO:LB:g=original	!	!	!	!	!	!	!	!	!	!	!	!	!	!
=109	=109	=109	=109	=109	=109	=109	=109	=109	=109	=109	=109	=109	=109	=109	=109	=109
2F\	.	2f\	.	8b-\L]	.	8dd\L]	.	.	.	.	.	2ryy	.	.	.	.
.	.	.	.	(8b-\	.	(8dd\	.	.	.	.	.	.	.	.	.	.
.	.	.	.	8a\	.	8cc\	.	.	.	.	.	.	.	.	.	.
.	.	.	.	8b-\J)	.	8dd\J)	.	.	.	.	.	.	.	.	.	.
=110	=110	=110	=110	=110	=110	=110	=110	=110	=110	=110	=110	=110	=110	=110	=110	=110
4E-X\	.	4g\	.	8g/L	.	8ee-X\L	.	.	.	.	.	2ryy	.	.	.	.
.	.	.	.	(8e-X/	.	(8cc\	.	.	.	.	.	.	.	.	.	.
4F\	.	4f\	.	8d/	.	8b-\	.	.	.	.	.	.	.	.	.	.
.	.	.	.	8c/J)	.	8a\J)	.	.	.	.	.	.	.	.	.	.
!	!	!	!	!LO:LB:g=original	!	!	!	!	!	!	!	!	!	!	!	!
=111	=111	=111	=111	=111	=111	=111	=111	=111	=111	=111	=111	=111	=111	=111	=111	=111
*	*	*tremolo	*	*	*	*	*	*	*	*	*	*	*	*	*	*
!	!LO:DY:t=pia	!	!	!	!	!	!	!	!	!	!	!	!	!	!	!
8B-\L	p	8d\L	.	(8d/L	.	4b-\	.	0r	.	0r	.	2ryy	0r	.	0r	.
8B-\	.	8d\	.	8f/)	.	.	.	.	.	.	.	.	.	.	.	.
8B-\	.	8d\	.	8f'/	.	8.dd\L	.	.	.	.	.	.	.	.	.	.
8B-\J	.	8d\J	.	8f'/J	.	.	.	.	.	.	.	.	.	.	.	.
.	.	.	.	.	.	16ee-\Jk	.	.	.	.	.	.	.	.	.	.
=112	=112	=112	=112	=112	=112	=112	=112	=112	=112	=112	=112	=112	=112	=112	=112	=112
*tremolo	*	*	*	*	*	*	*	*	*	*	*	*	*	*	*	*
8B-\L	.	8d\L	.	8f'/L	.	4ff\	.	.	.	.	.	2ryy	.	.	.	.
8B-\	.	8d\	.	8f'/	.	.	.	.	.	.	.	.	.	.	.	.
8B-\	.	8d\	.	8f'/	.	4ff\	.	.	.	.	.	.	.	.	.	.
8B-\J	.	8d\J	.	8f'/J	.	.	.	.	.	.	.	.	.	.	.	.
!LO:LB:g=original	!	!	!	!	!	!LO:LB:g=original	!	!	!	!	!	!	!	!	!	!
=113	=113	=113	=113	=113	=113	=113	=113	=113	=113	=113	=113	=113	=113	=113	=113	=113
*	*	*	*	*tremolo	*	*	*	*	*	*	*	*	*	*	*	*
8An\L	.	8c\L	.	8f/L	.	4.ff\	.	.	.	.	.	2ryy	.	.	.	.
8An\	.	8c\	.	8f/	.	.	.	.	.	.	.	.	.	.	.	.
8An\	.	8c\	.	8f/	.	.	.	.	.	.	.	.	.	.	.	.
8An\J	.	8c\J	.	8f/J	.	8ee-\	.	.	.	.	.	.	.	.	.	.
=114	=114	=114	=114	=114	=114	=114	=114	=114	=114	=114	=114	=114	=114	=114	=114	=114
.	.	.	.	.	.	8qqee-/	.	.	.	.	.	.	.	.	.	.
8B-\L	.	8d\L	.	8f/L	.	4dd\	.	.	.	.	.	2ryy	.	.	.	.
8B-\	.	8d\	.	8f/	.	.	.	.	.	.	.	.	.	.	.	.
8B-\	.	8d\	.	8f/	.	8cc\L	.	.	.	.	.	.	.	.	.	.
8B-\J	.	8d\J	.	8f/J	.	8b-\J	.	.	.	.	.	.	.	.	.	.
*Xtremolo	*	*Xtremolo	*	*	*	*	*	*	*	*	*	*	*	*	*	*
=115	=115	=115	=115	=115	=115	=115	=115	=115	=115	=115	=115	=115	=115	=115	=115	=115
8E-\L	.	(8c\L	.	8f/L	.	(8an/L	.	1r	.	1r	.	2ryy	1r	.	1r	.
8E-\	.	8c\	.	8f/	.	8cc/)	.	.	.	.	.	.	.	.	.	.
8D\	.	8d\	.	8f/	.	8b-'/	.	.	.	.	.	.	.	.	.	.
8D\J	.	8d\J)	.	8f/J	.	8b-'/J	.	.	.	.	.	.	.	.	.	.
=116	=116	=116	=116	=116	=116	=116	=116	=116	=116	=116	=116	=116	=116	=116	=116	=116
8E-\L	.	(8c\L	.	8f/L	.	(8a/L	.	.	.	.	.	2ryy	.	.	.	.
8E-\	.	8c\	.	8f/	.	8cc/)	.	.	.	.	.	.	.	.	.	.
8D\	.	8d\	.	8f/	.	8b-'/	.	.	.	.	.	.	.	.	.	.
8D\J	.	8d\J)	.	8f/J	.	8b-'/J	.	.	.	.	.	.	.	.	.	.
*	*	*	*	*Xtremolo	*	*	*	*	*	*	*	*	*	*	*	*
!	!	!	!	!	!	!	!	!	!	!	!	!	!LO:LB:g=original	!	!	!
=117	=117	=117	=117	=117	=117	=117	=117	=117	=117	=117	=117	=117	=117	=117	=117	=117
!	!	!	!	!	!LO:DY:rj	!	!	!	!	!	!LO:DY:t=f.	!	!	!	!	!LO:DY:rj
8A\L	f	4f\	f	4cc/ 4f/	f	4ee-|\	f	4f/	f	4ff\	f	2ryy	4cc|\	f	4ee-X\	f
8F\	.	.	.	.	.	.	.	.	.	.	.	.	.	.	.	.
8B-\	.	4f\	.	4b-X/ 4f/	.	4dd|\	.	4f/	.	4ff\	.	.	4b-X|\	.	4dd\	.
8F\J	.	.	.	.	.	.	.	.	.	.	.	.	.	.	.	.
=118	=118	=118	=118	=118	=118	=118	=118	=118	=118	=118	=118	=118	=118	=118	=118	=118
8F\L	.	4f\	.	4a/ 4f/	.	4cc\	.	4f/	.	4ff\	.	2ryy	4f/	.	4cc\	.
8E-X\	.	.	.	.	.	.	.	.	.	.	.	.	.	.	.	.
8D\	.	4r	.	4r	.	8r	.	4r	.	4r	.	.	4r	.	4r	.
8C\J	.	.	.	.	.	8f/	p	.	.	.	.	.	.	.	.	.
!	!	!	!	!	!	!	!	!	!	!LO:LB:g=original	!	!	!	!	!	!
=119	=119	=119	=119	=119	=119	=119	=119	=119	=119	=119	=119	=119	=119	=119	=119	=119
*	*	*tremolo	*	*	*	*	*	*	*	*	*	*	*	*	*	*
!LO:TX:t=P:problem=mixed beam	!LO:DY:t=p	!	!	!	!LO:DY:t=pia	!	!	!LO:TX:a:t=6	!	!LO:TX:a:t=6	!	!	!LO:TX:a:t=6	!	!LO:TX:a:t=6	!
8BB-/L	p	8d\L	p	8f/L	p	4b-\	.	0r	.	0r	.	2ryy	0r	.	0r	.
8B-\	.	8d\	.	8f/	.	.	.	.	.	.	.	.	.	.	.	.
8B-\	.	8d\	.	8f/	.	8.dd\L	.	.	.	.	.	.	.	.	.	.
8B-\J	.	8d\J	.	8f/J	.	.	.	.	.	.	.	.	.	.	.	.
.	.	.	.	.	.	16ee-\Jk	.	.	.	.	.	.	.	.	.	.
=120	=120	=120	=120	=120	=120	=120	=120	=120	=120	=120	=120	=120	=120	=120	=120	=120
*tremolo	*	*	*	*tremolo	*	*	*	*	*	*	*	*	*	*	*	*
8B-\L	.	8d\L	.	8f/L	.	4ff\	.	.	.	.	.	2ryy	.	.	.	.
8B-\	.	8d\	.	8f/	.	.	.	.	.	.	.	.	.	.	.	.
8B-\	.	8d\	.	8f/	.	4ff\	.	.	.	.	.	.	.	.	.	.
8B-\J	.	8d\J	.	8f/J	.	.	.	.	.	.	.	.	.	.	.	.
!	!	!LO:LB:g=original	!	!LO:LB:g=original	!	!	!	!	!	!	!	!	!	!	!	!
=121	=121	=121	=121	=121	=121	=121	=121	=121	=121	=121	=121	=121	=121	=121	=121	=121
8A\L	.	8c\L	.	8f/L	.	4.ff\	.	.	.	.	.	2ryy	.	.	.	.
8A\	.	8c\	.	8f/	.	.	.	.	.	.	.	.	.	.	.	.
8A\	.	8c\	.	8f/	.	.	.	.	.	.	.	.	.	.	.	.
8A\J	.	8c\J	.	8f/J	.	8ee-X\	.	.	.	.	.	.	.	.	.	.
=122	=122	=122	=122	=122	=122	=122	=122	=122	=122	=122	=122	=122	=122	=122	=122	=122
.	.	.	.	.	.	8qqee-/	.	.	.	.	.	.	.	.	.	.
8B-\L	.	8d\L	.	8f/L	.	4dd\	.	.	.	.	.	2ryy	.	.	.	.
8B-\	.	8d\	.	8f/	.	.	.	.	.	.	.	.	.	.	.	.
8B-\	.	8d\	.	8f/	.	8cc\L	.	.	.	.	.	.	.	.	.	.
8B-\J	.	8d\J	.	8f/J	.	8b-\J	.	.	.	.	.	.	.	.	.	.
*Xtremolo	*	*Xtremolo	*	*	*	*	*	*	*	*	*	*	*	*	*	*
=123	=123	=123	=123	=123	=123	=123	=123	=123	=123	=123	=123	=123	=123	=123	=123	=123
8E-\L	f	8c\L	.	8f/L	.	(8a/L	.	1r	.	1r	.	2ryy	1r	.	1r	.
8E-\	.	8c\	.	8f/	.	8cc/)	.	.	.	.	.	.	.	.	.	.
8D\	.	8d\	.	8f/	.	8b-'/	.	.	.	.	.	.	.	.	.	.
8D\J	.	8d\J	.	8f/J	.	8b-'/J	.	.	.	.	.	.	.	.	.	.
!	!	!	!	!	!	!LO:LB:g=original	!	!	!	!	!	!	!	!	!	!
=124	=124	=124	=124	=124	=124	=124	=124	=124	=124	=124	=124	=124	=124	=124	=124	=124
8E-\L	.	8c\L	.	8f/L	.	(8a/L	.	.	.	.	.	2ryy	.	.	.	.
8E-\	.	8c\	.	8f/	.	8cc/)	.	.	.	.	.	.	.	.	.	.
8D\	.	8d\	.	8f/	.	8b-'/	.	.	.	.	.	.	.	.	.	.
8D\J	.	8d\J	.	8f/J	.	8b-'/J	.	.	.	.	.	.	.	.	.	.
*	*	*	*	*Xtremolo	*	*	*	*	*	*	*	*	*	*	*	*
!	!	!	!	!	!	!	!	!LO:LB:g=original	!	!	!	!	!	!	!	!
=125	=125	=125	=125	=125	=125	=125	=125	=125	=125	=125	=125	=125	=125	=125	=125	=125
!	!LO:DY:t=fortiſ&colon;	!LO:SIC:v:s=4f\	!	!LO:SIC:v:s=4f/	!LO:DY:t=fortiſ&colon;	!	!LO:DY:rjLO:LB:g=original	!	!	!	!	!	!	!	!	!
4E-\	ff	4g\	f	4g/	ff	4ee-\	f	4f/	.	4ff\	.	2ryy	4cc\	.	4ee-|\	.
4F\	.	4f\	.	4e-X/ 4c/	.	4cc/ 4f/	.	4f/	.	4ff\	.	.	4f/	.	4cc|\	.
=126	=126	=126	=126	=126	=126	=126	=126	=126	=126	=126	=126	=126	=126	=126	=126	=126
8BB-/L	.	8b-\L	.	16d/LL	.	4b-/ 4d/	.	[2B-/	.	[<2b-\	f	2ryy	4d/	.	4b-\	.
.	.	.	.	16b-/	.	.	.	.	.	.	.	.	.	.	.	.
16D/L	.	16f\L	.	16f/	.	.	.	.	.	.	.	.	.	.	.	.
16F/JJ	.	16d\JJ	.	16b-/JJ	.	.	.	.	.	.	.	.	.	.	.	.
!	!	!	!	!	!	!	!LO:DY:t=fortiſsimo	!	!	!	!	!	!	!	!	!
8B-\L	.	8B-/L	.	16d/LL	.	8r	ff	.	.	.	.	.	4r	.	4r	.
.	.	.	.	16b-/	.	.	.	.	.	.	.	.	.	.	.	.
8B-\J	.	8B-/J	.	16f/	.	8f/	.	.	.	.	.	.	.	.	.	.
.	.	.	.	16b-/JJ	.	.	.	.	.	.	.	.	.	.	.	.
=127	=127	=127	=127	=127	=127	=127	=127	=127	=127	=127	=127	=127	=127	=127	=127	=127
*	*	*tremolo	*	*	*	*	*	*	*	*	*	*	*	*	*	*
8B-\L	.	16B-/LL	.	16d/LL	.	4b-\	.	2B-/]	.	2b-\_<	.	2ryy	2b-X/	.	2dd\	.
.	.	16B-/	.	16b-/	.	.	.	.	.	.	.	.	.	.	.	.
8B-\J	.	16B-/	.	16f/	.	.	.	.	.	.	.	.	.	.	.	.
.	.	16B-/	.	16b-/JJ	.	.	.	.	.	.	.	.	.	.	.	.
8A-X\L	.	16B-/	.	16d/LL	.	8.dd\L	.	.	.	.	.	.	.	.	.	.
.	.	16B-/	.	16b-/	.	.	.	.	.	.	.	.	.	.	.	.
8A-\J	.	16B-/	.	16f/	.	.	.	.	.	.	.	.	.	.	.	.
!	!	!	!	!LO:SIC:v:t=custos b	!	!	!	!	!	!	!	!	!	!	!	!
.	.	16B-/JJ	.	16b-/JJ	.	16ff\Jk	.	.	.	.	.	.	.	.	.	.
!	!	!	!	!LO:LB:g=original	!	!	!	!	!	!	!	!	!	!	!	!
=128	=128	=128	=128	=128	=128	=128	=128	=128	=128	=128	=128	=128	=128	=128	=128	=128
8G\L	.	16B-/LL	.	16e-X/LL	.	4ee-\	.	2B-/	.	2b-\_<	.	2ryy	2b-/	.	2ee-X\	.
.	.	16B-/	.	16b-/	.	.	.	.	.	.	.	.	.	.	.	.
8G\	.	16B-/	.	16g/	.	.	.	.	.	.	.	.	.	.	.	.
.	.	16B-/	.	16b-/JJ	.	.	.	.	.	.	.	.	.	.	.	.
8E-\	.	16B-/	.	16e-/LL	.	8.b-\L	.	.	.	.	.	.	.	.	.	.
.	.	16B-/	.	16b-/	.	.	.	.	.	.	.	.	.	.	.	.
8E-\J	.	16B-/	.	16g/	.	.	.	.	.	.	.	.	.	.	.	.
.	.	16B-/JJ	.	16b-/JJ	.	16gg\Jk	.	.	.	.	.	.	.	.	.	.
=129	=129	=129	=129	=129	=129	=129	=129	=129	=129	=129	=129	=129	=129	=129	=129	=129
8D/L	.	16B-/LL	.	16f/LL	.	16aa-X\LL	.	[2B-/	.	2b-\_<	.	2ryy	2b-/	.	2ff\	.
.	.	16B-/	.	16b-/	.	16gg\	.	.	.	.	.	.	.	.	.	.
8D/	.	16B-/	.	16f/	.	16ff\	.	.	.	.	.	.	.	.	.	.
.	.	16B-/	.	16b-/JJ	.	16ee-\JJ	.	.	.	.	.	.	.	.	.	.
8BB-/	.	16B-/	.	16f/LL	.	16dd\LL	.	.	.	.	.	.	.	.	.	.
.	.	16B-/	.	16b-/	.	16cc\	.	.	.	.	.	.	.	.	.	.
8BB-/J	.	16B-/	.	16f/	.	16b-\	.	.	.	.	.	.	.	.	.	.
!	!	!	!	!	!	!LO:TX:t=P:♭above:problem	!	!	!	!	!	!	!	!	!	!
.	.	16B-/JJ	.	16b-/JJ	.	16a-X\JJ	.	.	.	.	.	.	.	.	.	.
*	*	*Xtremolo	*	*	*	*	*	*	*	*	*	*	*	*	*	*
=130	=130	=130	=130	=130	=130	=130	=130	=130	=130	=130	=130	=130	=130	=130	=130	=130
8E-\L	.	4B-/	.	(16g/LL	.	4g/	.	4B-/]	.	4b-\]	.	2ryy	4b-/	.	4gg\	.
.	.	.	.	16b-/	.	.	.	.	.	.	.	.	.	.	.	.
16G\L	.	.	.	16g/	.	.	.	.	.	.	.	.	.	.	.	.
16B-\JJ	.	.	.	16b-/JJ)	.	.	.	.	.	.	.	.	.	.	.	.
!LO:TX:b:t=Vol:	!	!	!	!	!	!	!	!	!	!	!	!	!	!	!	!
4e-\	.	4r	.	8g/L	.	8r	.	4r	.	4r	.	.	4r	.	8r	.
.	.	.	.	8g/J	.	8gg\	.	.	.	.	.	.	.	.	8gg\	.
!LO:PB:g=original	!	!	!	!	!	!	!	!	!	!	!	!	!	!	!	!
=131	=131	=131	=131	=131	=131	=131	=131	=131	=131	=131	=131	=131	=131	=131	=131	=131
!LO:TX:t=P:problem=skan 016	!	!LO:TX:a:t=2	!	!	!	!	!	!LO:TX:a:t=3	!	!LO:TX:a:t=3	!	!	!LO:TX:a:t=2	!	!	!
[2E-\	.	1r	.	(8g/L	.	(8gg\L	.	1r	.	1r	.	2ryy	1r	.	(8gg\L	.
.	.	.	.	8f/	.	8ff\	.	.	.	.	.	.	.	.	8ff\	.
.	.	.	.	8e-/	.	8ee-\	.	.	.	.	.	.	.	.	8ee-\	.
.	.	.	.	8d/J)	.	8dd\J)	.	.	.	.	.	.	.	.	8dd\J)	.
=132	=132	=132	=132	=132	=132	=132	=132	=132	=132	=132	=132	=132	=132	=132	=132	=132
2E-\]	.	.	.	(8c/L	.	8ccn\L	.	.	.	.	.	2ryy	.	.	(8cc\L	.
.	.	.	.	8Bn/	.	8bn\	.	.	.	.	.	.	.	.	8bn\	.
.	.	.	.	8c/)	.	8cc\	.	.	.	.	.	.	.	.	8cc\	.
.	.	.	.	8d/J	.	8dd\J	.	.	.	.	.	.	.	.	8dd\J)	.
!	!	!LO:PB:g=original	!	!	!	!LO:LB:g=original	!	!	!	!	!	!	!	!	!LO:LB:g=original	!
=133	=133	=133	=133	=133	=133	=133	=133	=133	=133	=133	=133	=133	=133	=133	=133	=133
*	*	*tremolo	*	*	*	*	*	*	*	*	*	*	*	*	*	*
!	!	!LO:TX:t=P:problem=skan 013	!	!	!	!	!	!	!	!	!	!	!	!	!	!
(4E-\	.	16g\LL	.	8e-X/L	.	(8ee-X\L	.	2r	.	2r	.	2ryy	2g/	.	8ee-X\L	.
.	.	16g\	.	.	.	.	.	.	.	.	.	.	.	.	.	.
.	.	16g\	.	8d/	.	8dd\	.	.	.	.	.	.	.	.	8dd\	.
.	.	16g\	.	.	.	.	.	.	.	.	.	.	.	.	.	.
4En\)	.	16g\	.	8c/	.	8cc\	.	.	.	.	.	.	.	.	8cc\	.
.	.	16g\	.	.	.	.	.	.	.	.	.	.	.	.	.	.
.	.	16g\	.	8B-X/J	.	8b-X\J)	.	.	.	.	.	.	.	.	8b-\J	.
.	.	16g\JJ	.	.	.	.	.	.	.	.	.	.	.	.	.	.
!	!	!	!	!LO:LB:g=original	!	!	!	!	!	!	!	!	!LO:LB:g=original	!	!	!
=134	=134	=134	=134	=134	=134	=134	=134	=134	=134	=134	=134	=134	=134	=134	=134	=134
!LO:TX:t=P:problem=nadmiarowe takty 134-141 w partii cor 1	!	!LO:TX:t=P:problem=nadmiarowe takty 134-141 w partii cor 1	!	!LO:TX:t=P:problem=nadmiarowe takty 134-141 w partii cor 1	!	!LO:TX:t=P:problem=nadmiarowe takty 134-141 w partii cor 1	!	!LO:TX:t=P:problem=nadmiarowe takty 134-141 w partii cor 1	!	!LO:N:vis=1	!LO:DY:t=fo	!	!LO:TX:t=P:problem=nadmiarowe takty 134-141 w partii cor 1	!	!LO:TX:t=P:problem=nadmiarowe takty 134-141 w partii cor 1	!
2ryy	.	2ryy	.	2ryy	.	2ryy	.	2ryy	.	[<2b-\	f	2ryy	2ryy	.	2ryy	.
=135	=135	=135	=135	=135	=135	=135	=135	=135	=135	=135	=135	=135	=135	=135	=135	=135
!	!	!	!	!	!	!	!	!	!	!LO:N:vis=1	!	!	!	!	!	!
2ryy	.	2ryy	.	2ryy	.	2ryy	.	2ryy	.	2b-\_<	.	2ryy	2ryy	.	2ryy	.
=136	=136	=136	=136	=136	=136	=136	=136	=136	=136	=136	=136	=136	=136	=136	=136	=136
!	!	!	!	!	!	!	!	!	!	!LO:N:vis=1	!	!	!	!	!	!
2ryy	.	2ryy	.	2ryy	.	2ryy	.	2ryy	.	2b-\_<	.	2ryy	2ryy	.	2ryy	.
=137	=137	=137	=137	=137	=137	=137	=137	=137	=137	=137	=137	=137	=137	=137	=137	=137
!	!	!	!	!	!	!	!	!	!	!LO:N:vis=1	!	!	!	!	!	!
2ryy	.	2ryy	.	2ryy	.	2ryy	.	2ryy	.	2b-\]	.	2ryy	2ryy	.	2ryy	.
!	!	!	!	!	!	!	!	!	!	!LO:LB:g=original	!	!	!	!	!	!
=138	=138	=138	=138	=138	=138	=138	=138	=138	=138	=138	=138	=138	=138	=138	=138	=138
2ryy	.	2ryy	.	2ryy	.	2ryy	.	2ryy	.	4b-\	.	2ryy	2ryy	.	2ryy	.
.	.	.	.	.	.	.	.	.	.	4r	.	.	.	.	.	.
=139	=139	=139	=139	=139	=139	=139	=139	=139	=139	=139	=139	=139	=139	=139	=139	=139
!	!	!	!	!	!	!	!	!	!	!LO:TX:a:t=3	!	!	!	!	!	!
2ryy	.	2ryy	.	2ryy	.	2ryy	.	2ryy	.	1r	.	2ryy	2ryy	.	2ryy	.
=140	=140	=140	=140	=140	=140	=140	=140	=140	=140	=140	=140	=140	=140	=140	=140	=140
2ryy	.	2ryy	.	2ryy	.	2ryy	.	2ryy	.	.	.	2ryy	2ryy	.	2ryy	.
=141	=141	=141	=141	=141	=141	=141	=141	=141	=141	=141	=141	=141	=141	=141	=141	=141
2ryy	.	2ryy	.	2ryy	.	2ryy	.	2ryy	.	2r	.	2ryy	2ryy	.	2ryy	.
=142	=142	=142	=142	=142	=142	=142	=142	=142	=142	=142	=142	=142	=142	=142	=142	=142
4F\|	.	16f\LL	.	16c/LL	.	16an\LL	.	2f/	.	2cc\	.	2ryy	2a/	.	2cc\	.
.	.	16f\	.	16cc/ 16f/	.	16ff\	.	.	.	.	.	.	.	.	.	.
.	.	16f\	.	16cc/ 16f/	.	16ff\	.	.	.	.	.	.	.	.	.	.
.	.	16f\	.	16cc/JJ 16f/	.	16ff\JJ	.	.	.	.	.	.	.	.	.	.
*	*	*	*	*tremolo	*	*tremolo	*	*	*	*	*	*	*	*	*	*
4E-X\|	.	16f\	.	16cc/ 16f/LL	.	16ff\LL	.	.	.	.	.	.	.	.	.	.
.	.	16f\	.	16cc/ 16f/	.	16ff\	.	.	.	.	.	.	.	.	.	.
.	.	16f\	.	16cc/ 16f/	.	16ff\	.	.	.	.	.	.	.	.	.	.
.	.	16f\JJ	.	16cc/ 16f/JJ	.	16ff\JJ	.	.	.	.	.	.	.	.	.	.
*	*	*	*	*Xtremolo	*	*Xtremolo	*	*2\right	*	*	*	*	*	*	*	*
=143	=143	=143	=143	=143	=143	=143	=143	=143	=143	=143	=143	=143	=143	=143	=143	=143
4D\	.	16f\LL	.	16dd\LL	.	16bb-\LL	.	2b-\	.	2dd\	.	2ryy	2b-\	.	2dd\	.
.	.	16f\	.	16dd\	.	16bb-\	.	.	.	.	.	.	.	.	.	.
.	.	16f\	.	16ff\	.	16ff\	.	.	.	.	.	.	.	.	.	.
.	.	16f\	.	16ff\JJ	.	16ff\JJ	.	.	.	.	.	.	.	.	.	.
4BB-/	.	16f\	.	16dd\LL	.	16dd\LL	.	.	.	.	.	.	.	.	.	.
.	.	16f\	.	16dd\	.	16dd\	.	.	.	.	.	.	.	.	.	.
.	.	16f\	.	16b-\	.	16b-\	.	.	.	.	.	.	.	.	.	.
.	.	16f\JJ	.	16b-\JJ	.	16b-\JJ	.	.	.	.	.	.	.	.	.	.
=144	=144	=144	=144	=144	=144	=144	=144	=144	=144	=144	=144	=144	=144	=144	=144	=144
*	*	*	*	*tremolo	*	*	*	*	*	*	*	*	*	*	*	*
4F\	.	16f\LL	.	16cc/ 16f/LL	.	16an\LL	.	2f/	.	2cc\	.	2ryy	2a/	.	2cc\	.
.	.	16f\	.	16cc/ 16f/	.	16ff\	.	.	.	.	.	.	.	.	.	.
.	.	16f\	.	16cc/ 16f/	.	16een\	.	.	.	.	.	.	.	.	.	.
.	.	16f\	.	16cc/ 16f/	.	16ff\JJ	.	.	.	.	.	.	.	.	.	.
4E-X\	.	16f\	.	16cc/ 16f/	.	16gg\LL	.	.	.	.	.	.	.	.	.	.
.	.	16f\	.	16cc/ 16f/	.	16ff\	.	.	.	.	.	.	.	.	.	.
.	.	16f\	.	16cc/ 16f/	.	16ee\	.	.	.	.	.	.	.	.	.	.
.	.	16f\JJ	.	16cc/ 16f/JJ	.	16ff\JJ	.	.	.	.	.	.	.	.	.	.
*	*	*	*	*Xtremolo	*	*	*	*	*	*	*	*	*	*	*	*
=145	=145	=145	=145	=145	=145	=145	=145	=145	=145	=145	=145	=145	=145	=145	=145	=145
8D\L	.	16f\LL	.	16dd\LL	.	16bb-\LL	.	2b-\	.	2dd\	.	2ryy	2b-\	.	2dd\	.
.	.	16f\	.	16dd\	.	16aa\	.	.	.	.	.	.	.	.	.	.
8F\	.	16f\	.	16ff\	.	16gg\	.	.	.	.	.	.	.	.	.	.
.	.	16f\	.	16ff\JJ	.	16ff\JJ	.	.	.	.	.	.	.	.	.	.
8D\	.	16f\	.	16dd\LL	.	16ee-\LL	.	.	.	.	.	.	.	.	.	.
.	.	16f\	.	16dd\	.	16dd\	.	.	.	.	.	.	.	.	.	.
8BB-\J	.	16f\	.	16b-\	.	16cc\	.	.	.	.	.	.	.	.	.	.
.	.	16f\JJ	.	16b-\JJ	.	16b-\JJ	.	.	.	.	.	.	.	.	.	.
*	*	*Xtremolo	*	*	*	*	*	*	*	*	*	*	*	*	*	*
!	!	!	!	!	!	!	!	!LO:LB:g=original	!	!	!	!	!	!	!	!
=146	=146	=146	=146	=146	=146	=146	=146	=146	=146	=146	=146	=146	=146	=146	=146	=146
!LO:TX:t=P:problem=mixed beam	!	!	!	!	!	!	!	!	!	!	!	!	!	!	!	!
8FF/L	.	4f\	.	4cc/ 4f/	.	4ff\	.	4f/	.	4cc\	.	2ryy	4a/	.	4cc\	.
8F\	.	.	.	.	.	.	.	.	.	.	.	.	.	.	.	.
8C\	.	8.f\L	.	8.cc/L 8.f/	.	8.f/L	.	8.f/L	.	8.cc\L	.	.	8.a/L	.	8.cc\L	.
8AA\J	.	.	.	.	.	.	.	.	.	.	.	.	.	.	.	.
.	.	16f\Jk	.	16cc/Jk 16f/	.	16f/Jk	.	16f/Jk	.	16cc\Jk	.	.	16a/Jk	.	16cc\Jk	.
=147	=147	=147	=147	=147	=147	=147	=147	=147	=147	=147	=147	=147	=147	=147	=147	=147
!LO:TX:t=P:problem=mixed beam	!	!	!	!	!	!	!	!	!	!	!	!	!	!	!	!
8FF/L	.	8f\L	.	4cc/ 4f/	.	4f/	.	4f/	.	4cc\	.	2ryy	4a/	.	4cc\	.
(8E-X\	.	(8e-X\	.	.	.	.	.	.	.	.	.	.	.	.	.	.
8D\	.	8d\	.	4r	.	4r	.	4r	.	4r	.	.	4r	.	4f/	.
8C\J)	.	8c\J)	.	.	.	.	.	.	.	.	.	.	.	.	.	.
!LO:LB:g=original	!	!	!	!LO:LB:g=original	!	!LO:LB:g=original	!	!	!	!	!	!	!	!	!	!
=148	=148	=148	=148	=148	=148	=148	=148	=148	=148	=148	=148	=148	=148	=148	=148	=148
!LO:TX:t=P:problem=mixed beam	!LO:DY:t=pia&colon;	!LO:TX:t=P:problem=mixed beam	!	!LO:TX:a:t=2	!	!	!LO:DY:rj:t=p&colon;	!LO:TX:a:t=22	!	!LO:TX:a:t=22	!	!	!LO:TX:a:t=21	!	!	!
8BB-/L	p	8B-/L	pp	1r	.	2B-/	p	0r	.	0r	.	2ryy	0r	.	2b-X\	.
8B-\	.	8b-\	.	.	.	.	.	.	.	.	.	.	.	.	.	.
8F\	.	8f\	.	.	.	.	.	.	.	.	.	.	.	.	.	.
8D\J	.	8d\J	.	.	.	.	.	.	.	.	.	.	.	.	.	.
=149	=149	=149	=149	=149	=149	=149	=149	=149	=149	=149	=149	=149	=149	=149	=149	=149
4BB-/	.	4B-/	.	.	.	8e-/L	.	.	.	.	.	2ryy	.	.	(8ee-X\L	.
!	!	!	!	!	!	!LO:TX:b:t=dolce	!	!	!	!	!	!	!	!	!	!
.	.	.	.	.	.	8d/	.	.	.	.	.	.	.	.	8dd\)	.
4r	.	4r	.	.	.	8c/	.	.	.	.	.	.	.	.	8cc|\	.
.	.	.	.	.	.	8B-/J	.	.	.	.	.	.	.	.	8b-|\J	.
!	!	!LO:LB:g=original	!	!	!	!	!	!	!	!	!	!	!	!	!	!
=150	=150	=150	=150	=150	=150	=150	=150	=150	=150	=150	=150	=150	=150	=150	=150	=150
!LO:TX:t=P:problem=mixed beam	!	!LO:TX:t=P:problem=mixed beam	!	!	!	!	!	!	!	!	!	!	!	!	!	!
8BB-\L	.	8B-/L	.	2B-/	.	2d/	.	.	.	.	.	2ryy	.	.	2dd\	.
8B-\	.	8b-\	.	.	pp	.	.	.	.	.	.	.	.	.	.	.
8F\	.	8f\	.	.	.	.	.	.	.	.	.	.	.	.	.	.
8D\J	.	8d\J	.	.	.	.	.	.	.	.	.	.	.	.	.	.
=151	=151	=151	=151	=151	=151	=151	=151	=151	=151	=151	=151	=151	=151	=151	=151	=151
4BB-/	.	4B-/	.	8e-/L	.	(8g/L	.	.	.	.	.	2ryy	.	.	(8gg\L	.
.	.	.	.	(8d/	.	8f/	.	.	.	.	.	.	.	.	8ff\)	.
4r	.	4r	.	8c/	.	8e-/	.	.	.	.	.	.	.	.	8ee-'\	.
.	.	.	.	8B-/J)	.	8d/J)	.	.	.	.	.	.	.	.	8dd'\J	.
=152	=152	=152	=152	=152	=152	=152	=152	=152	=152	=152	=152	=152	=152	=152	=152	=152
!LO:TX:a:t=4	!	!LO:TX:a:t=4	!	!	!	!	!	!	!	!	!	!	!	!	!	!
0r	.	0r	.	4c/	.	(4c/	.	0r	.	0r	.	2ryy	0r	.	4cc\	.
.	.	.	.	4d/	.	4Bn/	.	.	.	.	.	.	.	.	4bn\	.
=153	=153	=153	=153	=153	=153	=153	=153	=153	=153	=153	=153	=153	=153	=153	=153	=153
.	.	.	.	4e-/	.	4c/	.	.	.	.	.	2ryy	.	.	4cc\	.
.	.	.	.	4Bn/	.	4d/)	.	.	.	.	.	.	.	.	4dd\	.
=154	=154	=154	=154	=154	=154	=154	=154	=154	=154	=154	=154	=154	=154	=154	=154	=154
.	.	.	.	(4c/	.	(4e-/	.	.	.	.	.	2ryy	.	.	4ee-\	.
!	!	!	!	!LO:SIC:v:s=4Bn/	!	!	!	!	!	!	!	!	!	!	!	!
.	.	.	.	4B-/)	.	4d/	.	.	.	.	.	.	.	.	4dd\	.
=155	=155	=155	=155	=155	=155	=155	=155	=155	=155	=155	=155	=155	=155	=155	=155	=155
.	.	.	.	4c/	.	4e-/	.	.	.	.	.	2ryy	.	.	4ee-\	.
.	.	.	.	4d/	.	4f/)	.	.	.	.	.	.	.	.	4ff\	.
!	!	!	!	!	!	!	!	!	!	!	!	!	!	!	!LO:LB:g=original	!
=156	=156	=156	=156	=156	=156	=156	=156	=156	=156	=156	=156	=156	=156	=156	=156	=156
*	*	*	*	*tremolo	*	*tremolo	*	*	*	*	*	*	*	*	*	*
.	.	.	.	.	.	.	.	.	.	.	.	.	.	.	8qqff#X/	.
4E-\	.	4e-\	.	8e-/L	.	8g/L	.	0r	.	0r	.	2ryy	0r	.	2gg\	.
.	.	.	.	8e-/	.	8g/	.	.	.	.	.	.	.	.	.	.
4r	.	4r	.	8e-/	.	8g/	.	.	.	.	.	.	.	.	.	.
.	.	.	.	8e-/J	.	8g/J	.	.	.	.	.	.	.	.	.	.
*	*	*	*	*Xtremolo	*	*Xtremolo	*	*	*	*	*	*	*	*	*	*
=157	=157	=157	=157	=157	=157	=157	=157	=157	=157	=157	=157	=157	=157	=157	=157	=157
.	.	.	.	8qqa/	.	8qqcc/	.	.	.	.	.	.	.	.	8qqccc/	.
4E-\	.	4e-\	.	4g/	.	4b-\	.	.	.	.	.	2ryy	.	.	4bb-\	.
4r	.	4r	.	8f/L	.	8a/L	.	.	.	.	.	.	.	.	8aa\L	.
.	.	.	.	8e-/J	.	8g/J	.	.	.	.	.	.	.	.	8gg\J	.
!	!	!	!	!LO:LB:g=original	!	!	!	!	!	!	!	!	!	!	!	!
=158	=158	=158	=158	=158	=158	=158	=158	=158	=158	=158	=158	=158	=158	=158	=158	=158
.	.	.	.	8qqe-/	.	8qqg/	.	.	.	.	.	.	.	.	8qqgg/	.
4F\	.	4f\	.	4d/	.	4f/	.	.	.	.	.	2ryy	.	.	4ff\	.
4r	.	4r	.	8c/L	.	8e-/L	.	.	.	.	.	.	.	.	8ee-\L	.
.	.	.	.	8B-X/J	.	8d/J	.	.	.	.	.	.	.	.	8dd\J	.
=159	=159	=159	=159	=159	=159	=159	=159	=159	=159	=159	=159	=159	=159	=159	=159	=159
.	.	.	.	8qqd/	.	8qqf/	.	.	.	.	.	.	.	.	8qqff/	.
4FF/	.	4F/	.	4c/	.	4e-/	.	.	.	.	.	2ryy	.	.	4ee-\	.
4r	.	4r	.	(8B-/L	.	8d/L	.	.	.	.	.	.	.	.	8dd\L	.
.	.	.	.	8An/J)	.	8c/J	.	.	.	.	.	.	.	.	8cc\J	.
!	!	!	!	!	!	!LO:LB:g=original	!	!	!	!	!	!	!	!	!	!
=160	=160	=160	=160	=160	=160	=160	=160	=160	=160	=160	=160	=160	=160	=160	=160	=160
!LO:TX:t=P:problem=mixed beam	!	!LO:TX:t=P:problem=mixed beam	!	!	!	!	!	!	!	!	!	!	!	!	!	!
8BB-/L	.	8B-/L	.	2B-/	.	2d/	.	0r	.	0r	.	2ryy	0r	.	2b-\	.
8B-\	.	8b-\	.	.	.	.	.	.	.	.	.	.	.	.	.	.
8F\	.	8f\	.	.	.	.	.	.	.	.	.	.	.	.	.	.
8D\J	.	8d\J	.	.	.	.	.	.	.	.	.	.	.	.	.	.
=161	=161	=161	=161	=161	=161	=161	=161	=161	=161	=161	=161	=161	=161	=161	=161	=161
4BB-/	.	4B-/	.	8e-/L	.	(8g/L	.	.	.	.	.	2ryy	.	.	(8ee-X\L	.
.	.	.	.	8d/	.	8f/	.	.	.	.	.	.	.	.	8dd\	.
4r	.	4r	.	8c/	.	8e-/	.	.	.	.	.	.	.	.	8cc\	.
.	.	.	.	8B-/J	.	8d/J)	.	.	.	.	.	.	.	.	8b-\J)	.
!LO:LB:g=original	!	!	!	!	!	!	!	!	!	!	!	!	!	!	!	!
=162	=162	=162	=162	=162	=162	=162	=162	=162	=162	=162	=162	=162	=162	=162	=162	=162
!LO:TX:t=P:problem=mixed beam	!	!LO:TX:t=P:problem=mixed beam	!	!	!	!	!	!	!	!	!	!	!	!	!	!
8BB-/L	.	8B-/L	.	2d/	.	2B-/	.	.	.	.	.	2ryy	.	.	2dd\	.
8B-\	.	8b-\	.	.	.	.	.	.	.	.	.	.	.	.	.	.
8F\	.	8f\	.	.	.	.	.	.	.	.	.	.	.	.	.	.
8D\J	.	8d\J	.	.	.	.	.	.	.	.	.	.	.	.	.	.
=163	=163	=163	=163	=163	=163	=163	=163	=163	=163	=163	=163	=163	=163	=163	=163	=163
4BB-/	.	4B-/	.	(8g/L	.	(8e-/L	.	.	.	.	.	2ryy	.	.	8gg\L	.
.	.	.	.	8f/)	.	8d/)	.	.	.	.	.	.	.	.	8ff\	.
4r	.	4r	.	8e-|/	.	8c'/	.	.	.	.	.	.	.	.	8ee-X\	.
.	.	.	.	8d'/J	.	8B-'/J	.	.	.	.	.	.	.	.	8dd\J	.
!	!	!LO:LB:g=original	!	!	!	!	!	!	!	!	!	!	!	!	!	!
=164	=164	=164	=164	=164	=164	=164	=164	=164	=164	=164	=164	=164	=164	=164	=164	=164
4E-\	.	4e-\	.	8c/L	.	8c|/L	.	0r	.	0r	.	2ryy	0r	.	8cc|\L	.
.	.	.	.	16.r	.	16c/L	.	.	.	.	.	.	.	.	(16cc\L	.
.	.	.	.	.	.	16d/JJ	.	.	.	.	.	.	.	.	16dd\JJ)	.
!	!	!	!	!LO:TX:t=P:♮below:problem	!	!	!	!	!	!	!	!	!	!	!	!
.	.	.	.	32Bn/Jkk	.	.	.	.	.	.	.	.	.	.	.	.
!	!	!	!	!LO:TX:a:t=	!	!	!	!	!	!	!	!	!	!	!	!
4r	.	4r	.	8c|/L	.	8e-X/L	.	.	.	.	.	.	.	.	8ee-X|\L	.
.	.	.	.	(16c/L	.	16e-/L	.	.	.	.	.	.	.	.	(16ee-\L	.
.	.	.	.	16d/JJ)	.	16f/JJ	.	.	.	.	.	.	.	.	16ff\JJ)	.
=165	=165	=165	=165	=165	=165	=165	=165	=165	=165	=165	=165	=165	=165	=165	=165	=165
!LO:TX:a:t=2	!	!	!	!LO:TX:t=P:♭below:problem	!	!	!	!	!	!	!	!	!	!	!	!
1r	.	2r	.	8.e-X/L	.	8.g/L	.	.	.	.	.	2ryy	.	.	8.gg\L	.
.	.	.	.	16d/Jk	.	16f#X/Jk	.	.	.	.	.	.	.	.	16ff#X\Jk	.
!	!	!	!	!LO:LB:g=original	!	!	!	!	!	!	!	!	!	!	!	!
.	.	.	.	8.e-/L	.	8.g/L	.	.	.	.	.	.	.	.	8.gg\L	.
.	.	.	.	16d/Jk	.	16f#/Jk	.	.	.	.	.	.	.	.	16ff#X\Jk	.
!	!	!	!	!	!	!	!	!	!	!	!	!	!	!	!LO:LB:g=original	!
=166	=166	=166	=166	=166	=166	=166	=166	=166	=166	=166	=166	=166	=166	=166	=166	=166
.	.	4e-\	.	4e-/	.	(16g/LL	.	.	.	.	.	2ryy	.	.	16gg\LL	.
.	.	.	.	.	.	16a/	.	.	.	.	.	.	.	.	16aa\	.
.	.	.	.	.	.	16b-/	.	.	.	.	.	.	.	.	16bb-\	.
.	.	.	.	.	.	16a/JJ	.	.	.	.	.	.	.	.	16aa\JJ	.
.	.	4r	.	4r	.	16b-/LL	.	.	.	.	.	.	.	.	16bb-\LL	.
.	.	.	.	.	.	16a/	.	.	.	.	.	.	.	.	16aa\	.
.	.	.	.	.	.	16b-/	.	.	.	.	.	.	.	.	16bb-\	.
.	.	.	.	.	.	16a/JJ)	.	.	.	.	.	.	.	.	16aa\JJ	.
=167	=167	=167	=167	=167	=167	=167	=167	=167	=167	=167	=167	=167	=167	=167	=167	=167
!	!	!	!	!LO:TX:a:t=1	!	!	!	!	!	!	!	!	!	!	!	!
4E-\	.	4e-\	.	2r	.	16g/LL	.	.	.	.	.	2ryy	.	.	16gg\LL	.
.	.	.	.	.	.	16a/	.	.	.	.	.	.	.	.	16aa\	.
.	.	.	.	.	.	16b-/	.	.	.	.	.	.	.	.	16bb-\	.
.	.	.	.	.	.	16a/JJ	.	.	.	.	.	.	.	.	16aa\JJ	.
!	!	!	!	!	!	!LO:LB:g=original	!	!	!	!	!	!	!	!	!	!
4r	.	4r	.	.	.	(16cc\LL	.	.	.	.	.	.	.	.	16ccc\LL	.
.	.	.	.	.	.	16b-\	.	.	.	.	.	.	.	.	16bb-\	.
.	.	.	.	.	.	16a\	.	.	.	.	.	.	.	.	16aa\	.
.	.	.	.	.	.	16g\JJ)	.	.	.	.	.	.	.	.	16gg\JJ	.
=168	=168	=168	=168	=168	=168	=168	=168	=168	=168	=168	=168	=168	=168	=168	=168	=168
.	.	.	.	.	.	8qqg/	.	.	.	.	.	.	.	.	8qqgg/	.
8D\L	.	8f\L	.	8d/L	.	8f/L	.	1r	.	1r	.	2ryy	2r	.	8ff\L	.
8D\	.	8f\	.	8d/	.	16en/L	.	.	.	.	.	.	.	.	16een\L	.
.	.	.	.	.	.	16f/JJ	.	.	.	.	.	.	.	.	16ff\JJ	.
.	.	.	.	.	.	8qqa-X/	.	.	.	.	.	.	.	.	8qqaa-X/	.
8E-\	.	8e-\	.	8e-/	.	8g/L	.	.	.	.	.	.	.	.	8gg\L	.
8E-\J	.	8e-\J	.	8e-/J	.	16f/L	.	.	.	.	.	.	.	.	16ff\L	.
.	.	.	.	.	.	16e/JJ	.	.	.	.	.	.	.	.	16ee-X\JJ	.
=169	=169	=169	=169	=169	=169	=169	=169	=169	=169	=169	=169	=169	=169	=169	=169	=169
*	*	*tremolo	*	*tremolo	*	*	*	*	*	*	*	*	*	*	*	*
!LO:TX:t=P:problem=mixed beam	!	!	!	!	!	!LO:TX:t=P:problem=takt poprawiany	!	!	!	!	!	!	!	!	!	!
8F\L	.	8f\L	.	8f/L	.	4d/	.	.	.	.	.	2ryy	4b-/	.	4dd\	.
8F\	.	8f\	.	8f/	.	.	.	.	.	.	.	.	.	.	.	.
!	!	!	!	!	!	!LO:TX:a:t=t	!	!	!	!	!	!	!LO:TX:a:t=t	!	!LO:TX:a:t=t	!
8FF/	.	8f\	.	8f/	.	4c/	.	.	.	.	.	.	4a/	.	4cc\	.
8FF/J	.	8f\J	.	8f/J	.	.	.	.	.	.	.	.	.	.	.	.
*	*	*	*	*tremolo	*	*	*	*	*	*	*	*	*	*	*	*
=170	=170	=170	=170	=170	=170	=170	=170	=170	=170	=170	=170	=170	=170	=170	=170	=170
!LO:TX:t=P:problem=mixed beam	!LO:DY:t=for&colon;	!	!	!	!LO:DY:t=fortiſ.	!	!	!	!	!LO:N:vis=1	!LO:DY:t=fo	!	!	!	!	!
8BB-/L	f	16B-/LL	f	16B-/LL	ff	16b-\LL	f	[2B-/	f	[<2b-\	f	2ryy	4b-\	f	4b-\	.
.	.	16B-/	.	16b-/	.	16b-\	.	.	.	.	.	.	.	.	.	.
8B-\	.	16B-/	.	16b-/	.	16b-\	.	.	.	.	.	.	.	.	.	.
.	.	16B-/JJ	.	16b-/JJ	.	16b-\JJ	.	.	.	.	.	.	.	.	.	.
*	*	*	*	*tremolo	*	*tremolo	*	*	*	*	*	*	*	*	*	*
8F\	.	16d\LL	.	16b-\LL	.	16dd\LL	.	.	.	.	.	.	4b-\	.	4dd\	.
.	.	16d\	.	16b-\	.	16dd\	.	.	.	.	.	.	.	.	.	.
8D\J	.	16d\	.	16b-\	.	16dd\	.	.	.	.	.	.	.	.	.	.
.	.	16d\JJ	.	16b-\JJ	.	16dd\JJ	.	.	.	.	.	.	.	.	.	.
=171	=171	=171	=171	=171	=171	=171	=171	=171	=171	=171	=171	=171	=171	=171	=171	=171
!LO:TX:t=P:problem=mixed beam	!	!	!	!	!	!	!	!	!	!LO:N:vis=1	!	!	!	!	!	!
8BB-/L	.	16f\LL	.	16b-\LL	.	16ff\LL	.	2B-/_	.	2b-\]	.	2ryy	[2b-\	.	4ff\	.
.	.	16f\	.	16b-\	.	16ff\	.	.	.	.	.	.	.	.	.	.
8B-\	.	16f\	.	16b-\	.	16ff\	.	.	.	.	.	.	.	.	.	.
.	.	16f\JJ	.	16b-\	.	16ff\JJ	.	.	.	.	.	.	.	.	.	.
8F\	.	16d\LL	.	16b-\	.	16dd\LL	.	.	.	.	.	.	.	.	4dd\	.
.	.	16d\	.	16b-\	.	16dd\	.	.	.	.	.	.	.	.	.	.
8D\J	.	16d\	.	16b-\	.	16dd\	.	.	.	.	.	.	.	.	.	.
.	.	16d\JJ	.	16b-\JJ	.	16dd\JJ	.	.	.	.	.	.	.	.	.	.
!LO:LB:g=original	!	!	!	!	!	!	!	!	!	!LO:LB:g=original	!	!	!	!	!	!
=172	=172	=172	=172	=172	=172	=172	=172	=172	=172	=172	=172	=172	=172	=172	=172	=172
!	!	!	!	!	!	!	!	!	!	!LO:N:vis=1	!	!	!	!	!	!
8BB-/L	.	16B-/LL	.	16b-\LL	.	16b-/LL	.	2B-/_	.	[<2b-\	.	2ryy	2b-\]	.	8b-\	.
.	.	16B-/	.	16b-\	.	16b-/	.	.	.	.	.	.	.	.	.	.
8BB-/	.	16B-/	.	16b-\	.	16b-/	.	.	.	.	.	.	.	.	8r	.
.	.	16B-/JJ	.	16b-\	.	16b-/JJ	.	.	.	.	.	.	.	.	.	.
8D/	.	16f\LL	.	16b-\	.	16f/LL	.	.	.	.	.	.	.	.	4ff\	.
.	.	16f\	.	16b-\	.	16f/	.	.	.	.	.	.	.	.	.	.
8BB-/J	.	16f\	.	16b-\	.	16f/	.	.	.	.	.	.	.	.	.	.
.	.	16f\JJ	.	16b-\JJ	.	16f/JJ	.	.	.	.	.	.	.	.	.	.
!	!	!LO:LB:g=original	!	!	!	!	!	!	!	!	!	!	!	!	!	!
=173	=173	=173	=173	=173	=173	=173	=173	=173	=173	=173	=173	=173	=173	=173	=173	=173
!	!	!	!	!	!	!	!	!	!	!LO:N:vis=1	!	!	!	!	!	!
8E-\L	.	16g\LL	.	16b-\LL	.	16g/LL	.	2B-/]	.	2b-\_<	.	2ryy	[2b-\	.	4gg\	.
.	.	16g\	.	16b-\	.	16g/	.	.	.	.	.	.	.	.	.	.
8BB-\	.	16g\	.	16b-\	.	16g/	.	.	.	.	.	.	.	.	.	.
.	.	16g\JJ	.	16b-\	.	16g/JJ	.	.	.	.	.	.	.	.	.	.
8F\	.	16a-X\LL	.	16b-\	.	16a-X/LL	.	.	.	.	.	.	.	.	4aa-X\	.
.	.	16a-X\	.	16b-\	.	16a-X/	.	.	.	.	.	.	.	.	.	.
8BB-\J	.	16a-X\	.	16b-\	.	16a-X/	.	.	.	.	.	.	.	.	.	.
!	!	!	!	!LO:SIC:v:t=custos g	!	!	!	!	!	!	!	!	!	!	!	!
.	.	16a-X\JJ	.	16b-\JJ	.	16a-X/JJ	.	.	.	.	.	.	.	.	.	.
*	*	*Xtremolo	*	*Xtremolo	*	*Xtremolo	*	*	*	*	*	*	*	*	*	*
!	!	!	!	!LO:LB:g=original	!	!	!	!	!	!	!	!	!LO:LB:g=original	!	!	!
=174	=174	=174	=174	=174	=174	=174	=174	=174	=174	=174	=174	=174	=174	=174	=174	=174
4E-\	.	4g\	.	8g\L	.	8g/L	.	4B-/	.	4b-\]	.	2ryy	4b-\]	.	4gg\	.
.	.	.	.	16a\L	.	16a/L	.	.	.	.	.	.	.	.	.	.
.	.	.	.	16b-\JJ	.	16b-/JJ	.	.	.	.	.	.	.	.	.	.
4r	.	4r	.	16cc\LL	.	16cc\LL	.	4r	.	4r	.	.	4r	.	4r	.
.	.	.	.	16dd\	.	16dd\	.	.	.	.	.	.	.	.	.	.
.	.	.	.	16ee-\	.	16ee-\	.	.	.	.	.	.	.	.	.	.
.	.	.	.	16ff\JJ	.	16ff\JJ	.	.	.	.	.	.	.	.	.	.
!	!	!	!	!	!	!LO:LB:g=original	!	!	!	!	!	!	!	!	!	!
=175	=175	=175	=175	=175	=175	=175	=175	=175	=175	=175	=175	=175	=175	=175	=175	=175
!	!	!	!	!	!	!	!	!	!	!LO:TX:a:t=1	!	!	!	!	!	!
4r	.	4r	.	16gg\LL	.	16gg\LL	.	2r	.	2r	.	2ryy	2r	.	2r	.
.	.	.	.	16ff\	.	16ff\	.	.	.	.	.	.	.	.	.	.
.	.	.	.	16ee-\	.	16ee-X\	.	.	.	.	.	.	.	.	.	.
.	.	.	.	16dd\JJ	.	16dd\JJ	.	.	.	.	.	.	.	.	.	.
4E-\	.	4e-\	.	16cc\LL	.	16cc\LL	.	.	.	.	.	.	.	.	.	.
.	.	.	.	16b-\	.	16b-\	.	.	.	.	.	.	.	.	.	.
.	.	.	.	16a\	.	16a\	.	.	.	.	.	.	.	.	.	.
.	.	.	.	16g\JJ	.	16g\JJ	.	.	.	.	.	.	.	.	.	.
!	!	!	!	!	!	!	!	!LO:LB:g=original	!	!	!	!	!	!	!	!
=176	=176	=176	=176	=176	=176	=176	=176	=176	=176	=176	=176	=176	=176	=176	=176	=176
*tremolo	*	*tremolo	*	*	*	*	*	*	*	*	*	*	*	*	*	*
8F\L	.	16f\LL	.	16f/LL	.	2f/	.	2b-\	.	(2dd\	.	2ryy	2b-\	.	2dd\	.
.	.	16f\	.	16b-/	.	.	.	.	.	.	.	.	.	.	.	.
8F\	.	16f\	.	16b-/	.	.	.	.	.	.	.	.	.	.	.	.
.	.	16f\	.	16b-/JJ	.	.	.	.	.	.	.	.	.	.	.	.
*	*	*	*	*tremolo	*	*	*	*	*	*	*	*	*	*	*	*
8F\	.	16f\	.	16b-/LL	.	.	.	.	.	.	.	.	.	.	.	.
.	.	16f\	.	16b-/	.	.	.	.	.	.	.	.	.	.	.	.
8F\J	.	16f\	.	16b-/	.	.	.	.	.	.	.	.	.	.	.	.
.	.	16f\JJ	.	16b-/JJ	.	.	.	.	.	.	.	.	.	.	.	.
=177	=177	=177	=177	=177	=177	=177	=177	=177	=177	=177	=177	=177	=177	=177	=177	=177
!	!	!	!	!	!	!LO:TX:a:t=t.	!	!	!	!	!	!	!	!	!LO:TX:a:t=t	!
8FF/L	.	16f\LL	.	16a/LL	.	2cc\	.	2f/	.	2cc\)	.	2ryy	2f/	.	2cc\	.
.	.	16f\	.	16a/	.	.	.	.	.	.	.	.	.	.	.	.
8FF/	.	16f\	.	16a/	.	.	.	.	.	.	.	.	.	.	.	.
.	.	16f\	.	16a/	.	.	.	.	.	.	.	.	.	.	.	.
8FF/	.	16f\	.	16a/	.	.	.	.	.	.	.	.	.	.	.	.
.	.	16f\	.	16a/	.	.	.	.	.	.	.	.	.	.	.	.
8FF/J	.	16f\	.	16a/	.	.	.	.	.	.	.	.	.	.	.	.
.	.	16f\JJ	.	16a/JJ	.	.	.	.	.	.	.	.	.	.	.	.
*Xtremolo	*	*Xtremolo	*	*Xtremolo	*	*	*	*	*	*	*	*	*	*	*	*
!	!	!	!	!	!	!	!	!	!	!	!	!	!	!	!LO:LB:g=original	!
=178	=178	=178	=178	=178	=178	=178	=178	=178	=178	=178	=178	=178	=178	=178	=178	=178
4BB-|/	.	4B-/	f	16b-\LL	.	16b-\LL	.	[2B-/	.	2b-\	.	2ryy	[2dd\	.	[2bb-\	.
.	.	.	.	16dd\	.	16bb-\	.	.	.	.	.	.	.	.	.	.
.	.	.	.	16dd\	.	16bb-\	.	.	.	.	.	.	.	.	.	.
.	.	.	.	16dd\JJ	.	16bb-\JJ	.	.	.	.	.	.	.	.	.	.
*	*	*	*	*tremolo	*	*tremolo	*	*	*	*	*	*	*	*	*	*
4D|/	.	4d/	.	16dd\LL	.	16bb-\LL	.	.	.	.	.	.	.	.	.	.
.	.	.	.	16dd\	.	16bb-\	.	.	.	.	.	.	.	.	.	.
.	.	.	.	16dd\	.	16bb-\	.	.	.	.	.	.	.	.	.	.
.	.	.	.	16dd\JJ	.	16bb-\JJ	.	.	.	.	.	.	.	.	.	.
=179	=179	=179	=179	=179	=179	=179	=179	=179	=179	=179	=179	=179	=179	=179	=179	=179
!	!	!	!	!	!	!	!	!	!	!	!	!	!	!	!LO:N:vis=1	!
4F|\	.	4f\	.	16dd\LL	.	16bb-\LL	.	2B-/]	.	2b-\	.	2ryy	2dd\]	.	2bb-\]	.
.	.	.	.	16dd\	.	16bb-\	.	.	.	.	.	.	.	.	.	.
.	.	.	.	16dd\	.	16bb-\	.	.	.	.	.	.	.	.	.	.
.	.	.	.	16dd\	.	16bb-\	.	.	.	.	.	.	.	.	.	.
4D|\	.	4d\	.	16dd\	.	16bb-\	.	.	.	.	.	.	.	.	.	.
.	.	.	.	16dd\	.	16bb-\	.	.	.	.	.	.	.	.	.	.
.	.	.	.	16dd\	.	16bb-\	.	.	.	.	.	.	.	.	.	.
.	.	.	.	16dd\JJ	.	16bb-\JJ	.	.	.	.	.	.	.	.	.	.
*	*	*	*	*Xtremolo	*	*Xtremolo	*	*	*	*	*	*	*	*	*	*
=180	=180	=180	=180	=180	=180	=180	=180	=180	=180	=180	=180	=180	=180	=180	=180	=180
4BB-/	.	4B-/	.	16bb-\LL	.	16bb-\LL	.	4B-/	.	4b-\	.	2ryy	4dd\	.	4bb-\	.
.	.	.	.	16aa\	.	16aa\	.	.	.	.	.	.	.	.	.	.
.	.	.	.	16gg\	.	16gg\	.	.	.	.	.	.	.	.	.	.
.	.	.	.	16ff\JJ	.	16ff\JJ	.	.	.	.	.	.	.	.	.	.
4r	.	4r	.	16ee-\LL	.	16ee-\LL	.	4r	.	4r	.	.	4r	.	4r	.
.	.	.	.	16dd\	.	16dd\	.	.	.	.	.	.	.	.	.	.
.	.	.	.	16cc\	.	16cc\	.	.	.	.	.	.	.	.	.	.
.	.	.	.	16b-\JJ	.	16b-\JJ	.	.	.	.	.	.	.	.	.	.
!LO:LB:g=original	!	!	!	!LO:LB:g=original	!	!	!	!	!	!	!	!	!	!	!	!
=181	=181	=181	=181	=181	=181	=181	=181	=181	=181	=181	=181	=181	=181	=181	=181	=181
!	!	!	!	!	!	!	!	!LO:TX:a:t=1	!	!	!	!	!	!	!	!
4E-X\	.	4e-X\	.	16gg\LL	.	16gg\LL	.	2r	.	2r	.	2ryy	2r	.	2r	.
.	.	.	.	16ff\	.	16ff\	.	.	.	.	.	.	.	.	.	.
.	.	.	.	16ee-X\	.	16ee-X\	.	.	.	.	.	.	.	.	.	.
.	.	.	.	16dd\JJ	.	16dd\JJ	.	.	.	.	.	.	.	.	.	.
4r	.	4r	.	16cc\LL	.	16cc\LL	.	.	.	.	.	.	.	.	.	.
!	!	!	!	!LO:TX:t=P:♭above:problem	!	!	!	!	!	!	!	!	!	!	!	!
.	.	.	.	16b-X\	.	16b-\	.	.	.	.	.	.	.	.	.	.
.	.	.	.	16a\	.	16a\	.	.	.	.	.	.	.	.	.	.
.	.	.	.	16g\JJ	.	16g\JJ	.	.	.	.	.	.	.	.	.	.
!	!	!LO:LB:g=original	!	!	!	!LO:LB:g=original	!	!	!	!	!	!	!	!	!	!
=182	=182	=182	=182	=182	=182	=182	=182	=182	=182	=182	=182	=182	=182	=182	=182	=182
*tremolo	*	*tremolo	*	*tremolo	*	*	*	*	*	*	*	*	*	*	*	*
8F\L	.	16f\LL	.	16b-\LL	.	2f/	.	2b-\	.	2dd\	.	2ryy	2b-\	.	2dd\	.
.	.	16f\	.	16b-\	.	.	.	.	.	.	.	.	.	.	.	.
8F\	.	16f\	.	16b-\	.	.	.	.	.	.	.	.	.	.	.	.
.	.	16f\	.	16b-\	.	.	.	.	.	.	.	.	.	.	.	.
8F\	.	16f\	.	16b-\	.	.	.	.	.	.	.	.	.	.	.	.
.	.	16f\	.	16b-\	.	.	.	.	.	.	.	.	.	.	.	.
8F\J	.	16f\	.	16b-\	.	.	.	.	.	.	.	.	.	.	.	.
.	.	16f\JJ	.	16b-\JJ	.	.	.	.	.	.	.	.	.	.	.	.
=183	=183	=183	=183	=183	=183	=183	=183	=183	=183	=183	=183	=183	=183	=183	=183	=183
!	!	!	!	!	!	!LO:TX:a:t=t	!	!	!	!	!	!	!	!	!	!
8FF/L	.	16f\LL	.	16a/LL	.	2cc\	.	2f/	.	2cc\	.	2ryy	2f/	.	2cc\	.
.	.	16f\	.	16a/	.	.	.	.	.	.	.	.	.	.	.	.
8FF/	.	16f\	.	16a/	.	.	.	.	.	.	.	.	.	.	.	.
.	.	16f\	.	16a/	.	.	.	.	.	.	.	.	.	.	.	.
8FF/	.	16f\	.	16a/	.	.	.	.	.	.	.	.	.	.	.	.
.	.	16f\	.	16a/	.	.	.	.	.	.	.	.	.	.	.	.
8FF/J	.	16f\	.	16a/	.	.	.	.	.	.	.	.	.	.	.	.
.	.	16f\JJ	.	16a/JJ	.	.	.	.	.	.	.	.	.	.	.	.
*	*	*	*	*Xtremolo	*	*	*	*	*	*	*	*	*	*	*	*
*	*	*Xtremolo	*	*	*	*	*	*	*	*	*	*	*	*	*	*
*Xtremolo	*	*	*	*	*	*	*	*	*	*	*	*	*	*	*	*
=184	=184	=184	=184	=184	=184	=184	=184	=184	=184	=184	=184	=184	=184	=184	=184	=184
8BB-/L	.	4f\ 4B-\	.	4b-\	.	4b-\	.	4B-/	.	4b-\	.	2ryy	4b-\	.	4b-\	.
8B-\	.	.	.	.	.	.	.	.	.	.	.	.	.	.	.	.
8F\	.	4f\ 4B-\	.	4dd/ 4f/ 4B-/	.	4bb-/ 4dd/ 4f/	.	4B-/	.	4b-\	.	.	4dd\	.	4bb-\	.
8D\J	.	.	.	.	.	.	.	.	.	.	.	.	.	.	.	.
!	!	!	!	!	!	!	!	!	!	!LO:LB:g=original	!	!	!	!	!	!
=185	=185	=185	=185	=185	=185	=185	=185	=185	=185	=185	=185	=185	=185	=185	=185	=185
!	!	!LO:TX:b:i:t=Fine	!	!	!	!LO:TX:b:t=Fine	!	!LO:TX:b:i:t=Fine.	!	!LO:TX:b:i:t=Fine.	!	!	!	!	!	!
4BB-/	.	2f/ 2B-/	.	2dd/ 2f/ 2B-/	.	2bb-/ 2dd/ 2f/	.	2B-/	.	2b-\	.	2ryy	2dd\	.	4bb-\	.
!LO:TX:b:t=Baſso.	!	!	!	!	!	!	!	!	!	!	!	!	!	!	!	!
!LO:TX:b:i:t=Fine.	!	!	!	!	!	!	!	!	!	!	!	!	!	!	!LO:TX:b:t=Fine.	!
4r	.	.	.	.	.	.	.	.	.	.	.	.	.	.	4r	.
=:|!	=:|!	=:|!	=:|!	=:|!	=:|!	=:|!	=:|!	=:|!	=:|!	=:|!	=:|!	=:|!	=:|!	=:|!	=:|!	=:|!
*-	*-	*-	*-	*-	*-	*-	*-	*-	*-	*-	*-	*-	*-	*-	*-	*-
!!!system-decoration: [(g1)][(g2)][(g3)]
!!!AIN: 1 cbass 2 cor 2 oboe 1 viola 2 violn
!!!ENC: Kamil Watkowski
!!!END: 2020-09-12
!!!RDF**kern: | = vertical stroke
!!!EED: Andrzej Borzym
!!!EST: 2022-01-28
!!!RDF**dynam: f = for
!!!RDF**dynam: p = p:
!!!RDF**kern: > = above
!!!RDF**kern: < = below
